%
O01001
(Using high feed G1 F5000. instead of G0.)
(T1 D=10. CR=0. - ZMIN=-5.57 - flat end mill)
(T2 D=3. CR=0. - ZMIN=-5.579 - flat end mill)
N10 G90 G94 G17
N15 G21
N20 G53 G0 Z0.

(Adaptive1)
N25 T1 M6
N30 S5000 M3
N35 G54
N40 M8
N45 G0 X49.795 Y22.357
N50 G43 Z15. H1
N55 T2
N60 G0 Z5.
N65 Z-3.57
N70 G1 Z-4.57 F1000.
N75 X49.788 Y22.353 Z-4.691
N80 X49.769 Y22.342 Z-4.809
N85 X49.738 Y22.324 Z-4.925
N90 X49.695 Y22.299 Z-5.035
N95 X49.641 Y22.268 Z-5.138
N100 X49.577 Y22.231 Z-5.233
N105 X49.503 Y22.188 Z-5.319
N110 X49.421 Y22.14 Z-5.393
N115 X49.331 Y22.089 Z-5.455
N120 X49.236 Y22.033 Z-5.505
N125 X49.136 Y21.976 Z-5.541
N130 X49.034 Y21.916 Z-5.563
N135 X48.929 Y21.856 Z-5.57
N140 G3 X44.495 Y18.602 I12.797 J-22.091
N145 G1 X44.435 Y18.544
N150 X44.139 Y18.094
N155 X43.823 Y17.516
N160 X43.487 Y16.766
N165 X43.135 Y15.773
N170 X42.826 Y14.611
N175 X42.676 Y13.841
N180 X42.633 Y13.441
N185 X42.66 Y13.04
N190 X42.755 Y12.649
N195 X42.916 Y12.281
N200 X43.008 Y12.111
N205 X43.161 Y11.812
N210 X43.308 Y11.513
N215 X43.44 Y11.214
N220 X43.685 Y10.616
N225 X43.803 Y10.317
N230 X43.919 Y10.018
N235 X44.017 Y9.719
N240 X44.179 Y9.025
N245 X44.226 Y8.822
N250 X44.351 Y8.224
N255 X44.407 Y7.925
N260 X44.481 Y7.327
N265 X44.516 Y7.028
N270 X44.579 Y6.43
N275 X44.59 Y6.13
N280 X44.585 Y5.532
N285 X44.542 Y5.233
N290 X44.479 Y4.813
N295 X44.434 Y4.635
N300 X44.253 Y4.037
N305 X44.179 Y3.852
N310 X43.995 Y3.439
N315 X43.939 Y3.334
N320 X43.677 Y2.813
N325 X43.546 Y2.49
N330 X43.424 Y2.088
N335 X43.375 Y1.671
N340 X43.403 Y1.252
N345 X43.505 Y0.844
N350 X43.678 Y0.462
N355 G3 X45.52 Y0.844 I0.852 J0.523
N360 G1 X45.781 Y2.669
N365 G3 X43.939 Y3.334 I-0.99 J0.141
N370 G1 X43.88 Y3.229
N375 X43.404 Y2.542
N380 X43.281 Y2.372
N385 X43.195 Y2.243
N390 X43.125 Y2.093
N395 X43.082 Y1.944
N400 X43.063 Y1.794
N405 X43.067 Y1.645
N410 X43.094 Y1.495
N415 X43.145 Y1.346
N420 X43.203 Y1.232
N425 X43.307 Y1.078
N430 X43.33 Y1.047
N435 X43.516 Y0.748
N440 X43.686 Y0.449
N445 X44.007 Y-0.15
N450 X44.165 Y-0.449
N455 X44.479 Y-1.173
N460 X44.551 Y-1.346
N465 X44.784 Y-1.944
N470 X44.883 Y-2.243
N475 X45.04 Y-2.841
N480 X45.078 Y-3.002
N485 X45.218 Y-3.738
N490 X45.26 Y-4.037
N495 X45.337 Y-4.635
N500 X45.385 Y-5.233
N505 X45.405 Y-5.532
N510 X45.408 Y-6.13
N515 X45.399 Y-6.43
N520 X45.344 Y-7.028
N525 X45.312 Y-7.327
N530 X45.241 Y-7.925
N535 X45.187 Y-8.224
N540 X45.065 Y-8.822
N545 X44.995 Y-9.121
N550 X44.852 Y-9.719
N555 X44.624 Y-10.317
N560 X44.506 Y-10.616
N565 X44.257 Y-11.214
N570 X44.179 Y-11.398
N575 X44.121 Y-11.513
N580 X43.968 Y-11.812
N585 X43.806 Y-12.111
N590 X43.639 Y-12.41
N595 X43.281 Y-13.039
N600 X43.092 Y-13.308
N605 X42.624 Y-13.906
N610 X42.382 Y-14.208
N615 X42.134 Y-14.504
N620 X42.082 Y-14.564
N625 X41.87 Y-14.803
N630 X41.483 Y-15.192
N635 X41.184 Y-15.492
N640 X40.968 Y-15.7
N645 X40.644 Y-15.999
N650 X40.585 Y-16.047
N655 X40.247 Y-16.298
N660 X39.986 Y-16.488
N665 X39.827 Y-16.597
N670 X39.381 Y-16.896
N675 X38.934 Y-17.195
N680 X38.788 Y-17.28
N685 X38.189 Y-17.608
N690 X37.889 Y-17.765
N695 X37.243 Y-18.092
N700 X36.991 Y-18.192
N705 X36.392 Y-18.414
N710 X35.624 Y-18.69
N715 X35.493 Y-18.736
N720 X34.59 Y-18.99
N725 X33.995 Y-19.149
N730 X33.696 Y-19.219
N735 X33.097 Y-19.319
N740 X32.797 Y-19.364
N745 X32.198 Y-19.444
N750 X31.899 Y-19.475
N755 X31.3 Y-19.528
N760 X31. Y-19.547
N765 X30.401 Y-19.579
N770 X30.102 Y-19.585
N775 X29.503 Y-19.592
N780 X29.203 Y-19.582
N785 X28.604 Y-19.56
N790 X28.005 Y-19.531
N795 X27.706 Y-19.515
N800 X26.807 Y-19.42
N805 X26.208 Y-19.355
N810 X25.908 Y-19.314
N815 X25.309 Y-19.196
N820 X25.01 Y-19.132
N825 X24.408 Y-18.99
N830 X24.111 Y-18.915
N835 X23.512 Y-18.758
N840 X23.284 Y-18.69
N845 X22.614 Y-18.473
N850 X22.015 Y-18.273
N855 X21.715 Y-18.173
N860 X21.52 Y-18.092
N865 X21.416 Y-18.042
N870 X20.307 Y-17.577
N875 X19.231 Y-17.221
N880 X19.196 Y-17.212
N885 X18.814 Y-17.152
N890 X18.428 Y-17.156
N895 X18.047 Y-17.223
N900 X17.683 Y-17.353
N905 X17.345 Y-17.541
N910 X17.043 Y-17.782
N915 G3 X17.616 Y-19.475 I0.711 J-0.703
N920 G1 X20.814 Y-19.919
N925 G3 X21.416 Y-18.042 I0.137 J0.991
N930 G1 X20.897 Y-17.793
N935 X20.817 Y-17.753
N940 X20.218 Y-17.434
N945 X19.918 Y-17.274
N950 X19.315 Y-16.896
N955 X19.019 Y-16.719
N960 X18.87 Y-16.662
N965 X18.72 Y-16.627
N970 X18.57 Y-16.616
N975 X18.42 Y-16.627
N980 X18.271 Y-16.662
N985 X18.121 Y-16.723
N990 X17.999 Y-16.796
N995 X17.877 Y-16.896
N1000 X17.821 Y-16.954
N1005 X17.624 Y-17.195
N1010 X17.522 Y-17.31
N1015 X17.347 Y-17.494
N1020 X17.03 Y-17.793
N1025 X16.623 Y-18.102
N1030 X16.324 Y-18.313
N1035 X16.177 Y-18.391
N1040 X15.577 Y-18.69
N1045 X15.425 Y-18.754
N1050 X14.826 Y-18.947
N1055 X14.678 Y-18.99
N1060 X14.227 Y-19.064
N1065 X13.928 Y-19.11
N1070 X13.329 Y-19.13
N1075 X13.029 Y-19.136
N1080 X10.633
N1085 X10.333
N1090 X9.734 Y-19.131
N1095 X9.435 Y-19.112
N1100 X8.836 Y-19.042
N1105 X8.564 Y-18.99
N1110 X8.237 Y-18.895
N1115 X7.937 Y-18.793
N1120 X7.338 Y-18.534
N1125 X7.075 Y-18.391
N1130 X7.039 Y-18.37
N1135 X6.313 Y-17.978
N1140 X5.549 Y-17.642
N1145 X4.532 Y-17.288
N1150 X3.368 Y-16.986
N1155 X2.187 Y-16.762
N1160 X1.67 Y-16.689
N1165 X1.295 Y-16.667
N1170 X0.921 Y-16.706
N1175 X0.559 Y-16.805
N1180 X0.217 Y-16.961
N1185 X-0.095 Y-17.171
N1190 X-0.369 Y-17.428
N1195 X-1.048 Y-18.028
N1200 X-1.133 Y-18.092
N1205 X-1.348 Y-18.239
N1210 X-1.647 Y-18.415
N1215 X-1.947 Y-18.569
N1220 X-2.546 Y-18.824
N1225 X-2.845 Y-18.918
N1230 X-3.094 Y-18.99
N1235 X-3.145 Y-19.
N1240 X-3.444 Y-19.053
N1245 X-4.044 Y-19.12
N1250 X-4.343 Y-19.132
N1255 X-4.942 Y-19.136
N1260 X-7.638
N1265 X-7.937 Y-19.127
N1270 X-8.237 Y-19.117
N1275 X-8.536 Y-19.103
N1280 X-9.21 Y-18.99
N1285 X-9.435 Y-18.923
N1290 X-10.034 Y-18.727
N1295 X-10.123 Y-18.69
N1300 X-10.333 Y-18.595
N1305 X-10.633 Y-18.466
N1310 X-10.783 Y-18.432
N1315 X-10.932 Y-18.422
N1320 X-11.082 Y-18.435
N1325 X-11.232 Y-18.468
N1330 X-11.531 Y-18.602
N1335 X-11.735 Y-18.69
N1340 X-12.43 Y-18.929
N1345 X-12.646 Y-18.99
N1350 X-13.029 Y-19.057
N1355 X-13.329 Y-19.101
N1360 X-13.928 Y-19.129
N1365 X-14.227 Y-19.136
N1370 X-16.623
N1375 X-16.923 Y-19.135
N1380 X-17.522 Y-19.13
N1385 X-17.821 Y-19.106
N1390 X-18.42 Y-19.035
N1395 X-18.635 Y-18.99
N1400 X-19.019 Y-18.878
N1405 X-19.319 Y-18.768
N1410 X-19.918 Y-18.509
N1415 X-20.124 Y-18.391
N1420 X-20.218 Y-18.336
N1425 X-20.729 Y-18.048
N1430 X-21.017 Y-17.95
N1435 X-21.318 Y-17.912
N1440 X-21.621 Y-17.935
N1445 X-21.913 Y-18.02
N1450 X-22.182 Y-18.162
N1455 G3 X-21.823 Y-19.948 I0.584 J-0.812
N1460 G1 X-21.005 Y-20.137
N1465 G3 X-20.218 Y-18.336 I0.225 J0.974
N1470 G1 X-20.517 Y-18.147
N1475 X-20.817 Y-17.936
N1480 X-20.966 Y-17.862
N1485 X-21.116 Y-17.815
N1490 X-21.27 Y-17.793
N1495 X-21.401
N1500 X-21.416 Y-17.794
N1505 X-21.565 Y-17.818
N1510 X-21.715 Y-17.866
N1515 X-21.865 Y-17.94
N1520 X-22.015 Y-18.047
N1525 X-22.077 Y-18.092
N1530 X-22.314 Y-18.251
N1535 X-22.614 Y-18.43
N1540 X-22.913 Y-18.573
N1545 X-23.213 Y-18.706
N1550 X-23.512 Y-18.833
N1555 X-24.043 Y-18.99
N1560 X-24.111 Y-19.005
N1565 X-24.411 Y-19.051
N1570 X-25.01 Y-19.127
N1575 X-25.908 Y-19.136
N1580 X-28.305
N1585 X-28.604 Y-19.131
N1590 X-29.203 Y-19.088
N1595 X-29.503 Y-19.048
N1600 X-29.812 Y-18.99
N1605 X-30.102 Y-18.912
N1610 X-30.701 Y-18.687
N1615 X-31. Y-18.55
N1620 X-31.599 Y-18.215
N1625 X-31.92 Y-18.036
N1630 X-32.201 Y-17.941
N1635 X-32.496 Y-17.907
N1640 X-32.791 Y-17.935
N1645 X-33.075 Y-18.024
N1650 X-33.334 Y-18.169
N1655 G3 X-33.947 Y-19.369 I0.946 J-1.241
N1660 X-31.599 Y-18.215 I1.477 J-0.039
N1665 G1 X-31.78 Y-18.092
N1670 X-31.899 Y-18.004
N1675 X-32.049 Y-17.913
N1680 X-32.198 Y-17.851
N1685 X-32.348 Y-17.816
N1690 X-32.498 Y-17.804
N1695 X-32.648 Y-17.815
N1700 X-32.797 Y-17.849
N1705 X-32.947 Y-17.909
N1710 X-33.022 Y-17.95
N1715 X-33.097 Y-18.001
N1720 X-33.396 Y-18.214
N1725 X-33.699 Y-18.391
N1730 X-34.299 Y-18.69
N1735 X-34.594 Y-18.801
N1740 X-34.894 Y-18.897
N1745 X-35.194 Y-18.989
N1750 X-35.793 Y-19.088
N1755 X-36.092 Y-19.115
N1760 X-36.691 Y-19.135
N1765 X-36.991 Y-19.136
N1770 X-39.387
N1775 X-39.986 Y-19.128
N1780 X-40.285 Y-19.122
N1785 X-40.884 Y-19.04
N1790 X-41.184 Y-18.988
N1795 X-41.783 Y-18.808
N1800 X-42.082 Y-18.676
N1805 X-42.382 Y-18.539
N1810 X-42.682 Y-18.39
N1815 X-42.981 Y-18.206
N1820 X-43.281 Y-17.987
N1825 X-43.507 Y-17.793
N1830 X-43.88 Y-17.454
N1835 X-43.999 Y-17.324
N1840 X-44.115 Y-17.195
N1845 X-44.479 Y-16.712
N1850 X-44.548 Y-16.597
N1855 X-44.887 Y-15.999
N1860 X-45.005 Y-15.7
N1865 X-45.115 Y-15.401
N1870 X-45.218 Y-15.102
N1875 X-45.344 Y-14.504
N1880 X-45.377 Y-14.272
N1885 X-45.421 Y-13.607
N1890 X-45.423 Y-13.308
N1895 Y13.308
N1900 X-45.421 Y13.607
N1905 X-45.377 Y14.272
N1910 X-45.344 Y14.504
N1915 X-45.218 Y15.102
N1920 X-45.115 Y15.401
N1925 X-45.005 Y15.7
N1930 X-44.887 Y15.999
N1935 X-44.548 Y16.597
N1940 X-44.479 Y16.712
N1945 X-44.115 Y17.195
N1950 X-43.999 Y17.324
N1955 X-43.88 Y17.454
N1960 X-43.507 Y17.793
N1965 X-43.281 Y17.987
N1970 X-42.981 Y18.206
N1975 X-42.679 Y18.391
N1980 X-42.382 Y18.539
N1985 X-42.05 Y18.69
N1990 X-41.783 Y18.808
N1995 X-41.18 Y18.99
N2000 X-40.884 Y19.04
N2005 X-40.285 Y19.122
N2010 X-39.686 Y19.132
N2015 X-39.387 Y19.136
N2020 X-35.194
N2025 X-34.894
N2030 X-34.295 Y19.124
N2035 X-33.995 Y19.106
N2040 X-33.396 Y19.018
N2045 X-33.234 Y18.99
N2050 X-32.797 Y18.856
N2055 X-32.498 Y18.755
N2060 X-31.899 Y18.474
N2065 X-31.731 Y18.391
N2070 X-31.599 Y18.31
N2075 X-31.393 Y18.185
N2080 X-30.747 Y17.86
N2085 X-29.903 Y17.517
N2090 X-28.766 Y17.158
N2095 X-27.595 Y16.89
N2100 X-26.409 Y16.69
N2105 X-25.217 Y16.54
N2110 X-24.817 Y16.503
N2115 X-24.445 Y16.498
N2120 X-24.077 Y16.552
N2125 X-23.722 Y16.664
N2130 X-23.39 Y16.831
N2135 X-23.088 Y17.049
N2140 X-22.825 Y17.312
N2145 X-22.669 Y17.494
N2150 X-22.614 Y17.548
N2155 X-22.335 Y17.793
N2160 X-21.951 Y18.092
N2165 X-21.715 Y18.27
N2170 X-20.914 Y18.69
N2175 X-20.218 Y18.93
N2180 X-20.003 Y18.99
N2185 X-19.619 Y19.057
N2190 X-19.319 Y19.101
N2195 X-18.72 Y19.129
N2200 X-18.42 Y19.136
N2205 X-14.227
N2210 X-13.928 Y19.129
N2215 X-13.329 Y19.101
N2220 X-13.029 Y19.057
N2225 X-12.646 Y18.99
N2230 X-12.43 Y18.929
N2235 X-11.735 Y18.69
N2240 X-11.531 Y18.602
N2245 X-11.232 Y18.468
N2250 X-11.082 Y18.435
N2255 X-10.932 Y18.422
N2260 X-10.783 Y18.432
N2265 X-10.633 Y18.466
N2270 X-10.333 Y18.595
N2275 X-10.123 Y18.69
N2280 X-10.034 Y18.727
N2285 X-9.435 Y18.923
N2290 X-9.21 Y18.99
N2295 X-8.536 Y19.103
N2300 X-8.237 Y19.117
N2305 X-7.937 Y19.127
N2310 X-7.638 Y19.136
N2315 X-4.942
N2320 X-4.343 Y19.132
N2325 X-4.044 Y19.12
N2330 X-3.444 Y19.053
N2335 X-3.145 Y19.
N2340 X-3.094 Y18.99
N2345 X-2.845 Y18.918
N2350 X-2.546 Y18.824
N2355 X-1.947 Y18.569
N2360 X-1.647 Y18.415
N2365 X-1.607 Y18.391
N2370 X-0.714 Y17.924
N2375 X0.085 Y17.585
N2380 X1.154 Y17.229
N2385 X2.322 Y16.942
N2390 X3.505 Y16.729
N2395 X3.898 Y16.676
N2400 X4.259 Y16.659
N2405 X4.618 Y16.701
N2410 X4.966 Y16.804
N2415 X5.291 Y16.962
N2420 X5.585 Y17.173
N2425 X5.841 Y17.429
N2430 X6.44 Y17.962
N2435 X6.604 Y18.092
N2440 X6.739 Y18.188
N2445 X7.075 Y18.391
N2450 X7.338 Y18.534
N2455 X7.937 Y18.793
N2460 X8.237 Y18.895
N2465 X8.564 Y18.99
N2470 X8.836 Y19.042
N2475 X9.435 Y19.112
N2480 X9.734 Y19.131
N2485 X10.333 Y19.136
N2490 X10.932
N2495 X13.029
N2500 X13.329 Y19.13
N2505 X13.928 Y19.11
N2510 X14.227 Y19.064
N2515 X14.678 Y18.99
N2520 X14.826 Y18.947
N2525 X15.425 Y18.754
N2530 X15.577 Y18.69
N2535 X16.177 Y18.391
N2540 X16.324 Y18.313
N2545 X16.351 Y18.294
N2550 X16.478 Y18.214
N2555 X17.109 Y17.89
N2560 X17.932 Y17.549
N2565 X18.485 Y17.37
N2570 X18.847 Y17.284
N2575 X19.217 Y17.256
N2580 X19.587 Y17.288
N2585 X19.948 Y17.378
N2590 X20.289 Y17.524
N2595 G3 X20.032 Y19.364 I-0.496 J0.868
N2600 G1 X17.194 Y20.062
N2605 G3 X16.351 Y18.294 I-0.239 J-0.971
N2610 G1 X16.623 Y18.102
N2615 X17.03 Y17.793
N2620 X17.347 Y17.494
N2625 X17.522 Y17.311
N2630 X17.624 Y17.195
N2635 X17.821 Y16.958
N2640 X17.883 Y16.896
N2645 X18.002 Y16.803
N2650 X18.121 Y16.735
N2655 X18.271 Y16.676
N2660 X18.42 Y16.644
N2665 X18.57 Y16.634
N2670 X18.72 Y16.647
N2675 X18.87 Y16.684
N2680 X19.019 Y16.747
N2685 X19.259 Y16.896
N2690 X19.822 Y17.26
N2695 X19.918 Y17.322
N2700 X20.232 Y17.494
N2705 X20.817 Y17.802
N2710 X21.116 Y17.952
N2715 X21.416 Y18.101
N2720 X21.715 Y18.237
N2725 X22.314 Y18.451
N2730 X22.614 Y18.556
N2735 X23.213 Y18.754
N2740 X23.512 Y18.846
N2745 X24.05 Y18.99
N2750 X24.71 Y19.153
N2755 X25.01 Y19.226
N2760 X25.309 Y19.283
N2765 X25.908 Y19.374
N2770 X26.208 Y19.412
N2775 X26.807 Y19.485
N2780 X27.107 Y19.508
N2785 X27.706 Y19.551
N2790 X28.44 Y19.588
N2795 X28.604 Y19.594
N2800 X29.203 Y19.584
N2805 X29.503 Y19.578
N2810 X30.102 Y19.551
N2815 X30.401 Y19.533
N2820 X31. Y19.481
N2825 X31.3 Y19.451
N2830 X31.899 Y19.381
N2835 X32.198 Y19.339
N2840 X32.797 Y19.238
N2845 X33.097 Y19.172
N2850 X33.836 Y18.99
N2855 X34.594 Y18.786
N2860 X34.894 Y18.689
N2865 X35.493 Y18.491
N2870 X36.092 Y18.279
N2875 X36.392 Y18.17
N2880 X36.553 Y18.092
N2885 X37.15 Y17.793
N2890 X37.889 Y17.404
N2895 X38.189 Y17.231
N2900 X38.788 Y16.84
N2905 X39.153 Y16.597
N2910 X39.387 Y16.44
N2915 X39.574 Y16.298
N2920 X39.686 Y16.211
N2925 X39.917 Y15.999
N2930 X40.285 Y15.656
N2935 X40.55 Y15.401
N2940 X41.184 Y14.755
N2945 X41.393 Y14.504
N2950 X41.881 Y13.906
N2955 X42.114 Y13.607
N2960 X42.333 Y13.308
N2965 X42.382 Y13.232
N2970 X42.519 Y13.009
N2975 X42.916 Y12.281
N2980 G3 X43.528 Y11.82 I0.861 J0.508
N2985 G1 X43.644 Y11.79 Z-5.563
N2990 X43.759 Y11.761 Z-5.541
N2995 X43.871 Y11.732 Z-5.505
N3000 X43.977 Y11.704 Z-5.455
N3005 X44.078 Y11.678 Z-5.393
N3010 X44.17 Y11.655 Z-5.319
N3015 X44.252 Y11.633 Z-5.233
N3020 X44.324 Y11.615 Z-5.138
N3025 X44.385 Y11.599 Z-5.035
N3030 X44.433 Y11.587 Z-4.925
N3035 X44.468 Y11.578 Z-4.809
N3040 X44.489 Y11.572 Z-4.691
N3045 X44.496 Y11.57 Z-4.57
N3050 G0 Z5.
N3055 G1 X-2.626 Y19.841 F5000.
N3060 G0 Z-3.57
N3065 G1 Z-4.57 F1000.
N3070 X-2.623 Y19.834 Z-4.691
N3075 X-2.612 Y19.815 Z-4.809
N3080 X-2.595 Y19.784 Z-4.925
N3085 X-2.571 Y19.74 Z-5.035
N3090 X-2.541 Y19.686 Z-5.138
N3095 X-2.505 Y19.62 Z-5.233
N3100 X-2.464 Y19.546 Z-5.319
N3105 X-2.418 Y19.462 Z-5.393
N3110 X-2.368 Y19.372 Z-5.455
N3115 X-2.315 Y19.275 Z-5.505
N3120 X-2.26 Y19.174 Z-5.541
N3125 X-2.203 Y19.07 Z-5.563
N3130 X-2.145 Y18.964 Z-5.57
N3135 G3 X-1.607 Y18.391 I1.387 J0.762
N3140 G1 X-1.348 Y18.239
N3145 X-1.133 Y18.092
N3150 X-1.048 Y18.028
N3155 X-0.369 Y17.428
N3160 X-0.294 Y17.345
N3165 X0.15 Y16.776
N3170 X0.276 Y16.597
N3175 X0.371 Y16.439
N3180 X0.508 Y16.237
N3185 X0.724 Y15.965
N3190 X0.969 Y15.703
N3195 X1.249 Y15.45
N3200 X1.531 Y15.232
N3205 X1.845 Y15.027
N3210 X2.156 Y14.859
N3215 X2.498 Y14.708
N3220 X2.831 Y14.627
N3225 X3.173 Y14.61
N3230 X3.513 Y14.659
N3235 X3.837 Y14.771
N3240 X4.133 Y14.943
N3245 X4.392 Y15.168
N3250 X4.602 Y15.438
N3255 X4.758 Y15.744
N3260 G3 X4.129 Y17.028 I-0.943 J0.334
N3265 G1 X1.559 Y17.875
N3270 G3 X0.371 Y16.439 I-0.313 J-0.95
N3275 G1 X0.456 Y16.298
N3280 X0.61 Y15.999
N3285 X0.729 Y15.7
N3290 X0.839 Y15.401
N3295 X0.942 Y15.102
N3300 X1.005 Y14.803
N3305 X1.043 Y14.658
N3310 X1.1 Y14.508
N3315 X1.168 Y14.366
N3320 X1.258 Y14.209
N3325 X1.36 Y14.063
N3330 X1.473 Y13.924
N3335 X1.612 Y13.779
N3340 X1.756 Y13.651
N3345 X1.918 Y13.529
N3350 X2.1 Y13.414
N3355 X2.282 Y13.319
N3360 X2.314 Y13.305
N3365 X2.609 Y13.213
N3370 X2.917 Y13.184
N3375 X3.224 Y13.218
N3380 X3.518 Y13.314
N3385 X3.787 Y13.468
N3390 X4.018 Y13.673
N3395 X4.202 Y13.922
N3400 X4.332 Y14.202
N3405 X4.402 Y14.504
N3410 X4.465 Y14.803
N3415 G3 X2.494 Y15.146 I-0.985 J0.172
N3420 G1 X2.434 Y14.803
N3425 G3 X1.005 I-0.715 J0.124
N3430 G1 X1.068 Y14.504
N3435 X1.105 Y14.205
N3440 X1.145 Y13.607
N3445 X1.155 Y13.457
N3450 X1.182 Y13.309
N3455 X1.223 Y13.165
N3460 X1.278 Y13.026
N3465 X1.345 Y12.891
N3470 X1.423 Y12.763
N3475 X1.517 Y12.635
N3480 X1.623 Y12.512
N3485 X1.734 Y12.402
N3490 X1.869 Y12.289
N3495 X2.013 Y12.187
N3500 X2.16 Y12.099
N3505 X2.477 Y11.985
N3510 X2.811 Y11.945
N3515 X3.145 Y11.98
N3520 X3.464 Y12.089
N3525 X3.75 Y12.265
N3530 X3.989 Y12.501
N3535 X4.17 Y12.785
N3540 X4.284 Y13.102
N3545 X4.323 Y13.436
N3550 G3 X4.134 Y14.23 I-1.999 J-0.057
N3555 X1.145 Y13.607 I-1.42 J-0.668
N3560 G1 X1.147 Y13.308
N3565 Y12.41
N3570 X1.154 Y12.261
N3575 X1.174 Y12.112
N3580 X1.209 Y11.966
N3585 X1.259 Y11.825
N3590 X1.323 Y11.689
N3595 X1.398 Y11.559
N3600 X1.486 Y11.434
N3605 X1.586 Y11.314
N3610 X1.691 Y11.206
N3615 X1.816 Y11.098
N3620 X1.956 Y10.995
N3625 X2.099 Y10.906
N3630 X2.256 Y10.826
N3635 X2.568 Y10.735
N3640 X2.893 Y10.713
N3645 X3.214 Y10.762
N3650 X3.518 Y10.88
N3655 X3.788 Y11.061
N3660 X4.014 Y11.296
N3665 X4.183 Y11.574
N3670 X4.287 Y11.882
N3675 X4.323 Y12.206
N3680 Y13.378
N3685 Y13.436
N3690 G3 X3.841 Y14.138 I-0.785 J-0.022
N3695 X1.147 Y12.41 I-0.749 J-1.796
N3700 G1 Y11.124
N3705 X1.154 Y10.974
N3710 X1.181 Y10.826
N3715 X1.221 Y10.682
N3720 X1.276 Y10.542
N3725 X1.344 Y10.409
N3730 X1.423 Y10.281
N3735 X1.513 Y10.161
N3740 X1.62 Y10.04
N3745 X1.732 Y9.931
N3750 X1.857 Y9.829
N3755 X2.004 Y9.727
N3760 X2.153 Y9.64
N3765 X2.31 Y9.565
N3770 X2.618 Y9.483
N3775 X2.936 Y9.469
N3780 X3.25 Y9.524
N3785 X3.544 Y9.644
N3790 X3.807 Y9.824
N3795 X4.024 Y10.056
N3800 X4.187 Y10.33
N3805 X4.288 Y10.632
N3810 X4.323 Y10.948
N3815 Y12.206
N3820 G3 X3.808 Y12.915 I-0.785 J-0.027
N3825 X1.147 Y11.124 I-0.681 J-1.861
N3830 G1 Y9.854
N3835 X1.154 Y9.704
N3840 X1.184 Y9.557
N3845 X1.227 Y9.413
N3850 X1.284 Y9.274
N3855 X1.354 Y9.142
N3860 X1.435 Y9.015
N3865 X1.526 Y8.896
N3870 X1.637 Y8.774
N3875 X1.752 Y8.665
N3880 X1.878 Y8.564
N3885 X2.028 Y8.463
N3890 X2.179 Y8.377
N3895 X2.204 Y8.366
N3900 X2.518 Y8.261
N3905 X2.848 Y8.228
N3910 X3.177 Y8.268
N3915 X3.489 Y8.381
N3920 X3.769 Y8.559
N3925 X4.002 Y8.795
N3930 X4.177 Y9.076
N3935 X4.286 Y9.39
N3940 X4.323 Y9.719
N3945 Y10.948
N3950 G3 X3.8 Y11.661 I-0.784 J-0.027
N3955 X1.147 Y9.854 I-0.664 J-1.877
N3960 G1 Y9.121
N3965 X1.156 Y8.822
N3970 X1.187 Y8.672
N3975 X1.245 Y8.523
N3980 X1.29 Y8.438
N3985 X1.348 Y8.353
N3990 X1.461 Y8.224
N3995 X1.554 Y8.143
N4000 X1.647 Y8.08
N4005 X1.797 Y8.006
N4010 X1.947 Y7.96
N4015 X2.097 Y7.939
N4020 X2.246 Y7.937
N4025 X3.145
N4030 X3.444 Y7.947
N4035 X3.594 Y7.98
N4040 X3.744 Y8.039
N4045 X3.875 Y8.116
N4050 X4.006 Y8.224
N4055 X4.044 Y8.261
N4060 X4.15 Y8.392
N4065 X4.225 Y8.523
N4070 X4.282 Y8.672
N4075 X4.314 Y8.822
N4080 X4.323 Y9.121
N4085 Y9.719
N4090 G3 X4.005 Y10.415 I-0.999 J-0.035
N4095 G1 X3.917 Y10.498 Z-5.563
N4100 X3.83 Y10.579 Z-5.541
N4105 X3.746 Y10.657 Z-5.505
N4110 X3.665 Y10.732 Z-5.455
N4115 X3.59 Y10.803 Z-5.393
N4120 X3.52 Y10.868 Z-5.319
N4125 X3.458 Y10.926 Z-5.233
N4130 X3.403 Y10.977 Z-5.138
N4135 X3.358 Y11.019 Z-5.035
N4140 X3.321 Y11.053 Z-4.925
N4145 X3.295 Y11.078 Z-4.809
N4150 X3.279 Y11.093 Z-4.691
N4155 X3.274 Y11.097 Z-4.57
N4160 G0 Z5.
N4165 G1 X8.038 Y-19.833 F5000.
N4170 G0 Z-3.57
N4175 G1 Z-4.57 F1000.
N4180 X8.035 Y-19.826 Z-4.691
N4185 X8.025 Y-19.807 Z-4.809
N4190 X8.008 Y-19.775 Z-4.925
N4195 X7.984 Y-19.732 Z-5.035
N4200 X7.955 Y-19.676 Z-5.138
N4205 X7.92 Y-19.611 Z-5.233
N4210 X7.88 Y-19.535 Z-5.319
N4215 X7.835 Y-19.451 Z-5.393
N4220 X7.787 Y-19.36 Z-5.455
N4225 X7.735 Y-19.263 Z-5.505
N4230 X7.681 Y-19.161 Z-5.541
N4235 X7.625 Y-19.056 Z-5.563
N4240 X7.568 Y-18.95 Z-5.57
N4245 G3 X7.039 Y-18.37 I-1.397 J-0.744
N4250 G1 X6.739 Y-18.188
N4255 X6.604 Y-18.092
N4260 X6.44 Y-17.962
N4265 X5.841 Y-17.429
N4270 X5.644 Y-17.195
N4275 X5.242 Y-16.676
N4280 X5.194 Y-16.597
N4285 X4.964 Y-16.252
N4290 X4.751 Y-15.983
N4295 X4.51 Y-15.723
N4300 X4.241 Y-15.476
N4305 X3.961 Y-15.258
N4310 X3.653 Y-15.055
N4315 X3.342 Y-14.885
N4320 X3.003 Y-14.734
N4325 X2.664 Y-14.649
N4330 X2.315 Y-14.63
N4335 X1.969 Y-14.679
N4340 X1.638 Y-14.792
N4345 X1.335 Y-14.967
N4350 X1.071 Y-15.196
N4355 X0.856 Y-15.471
N4360 X0.696 Y-15.782
N4365 G3 X1.3 Y-17.059 I0.942 J-0.336
N4370 G1 X3.98 Y-18.02
N4375 G3 X5.194 Y-16.597 I0.338 J0.941
N4380 G1 X5.016 Y-16.298
N4385 X4.942 Y-16.168
N4390 X4.859 Y-15.999
N4395 X4.741 Y-15.7
N4400 X4.631 Y-15.401
N4405 X4.527 Y-15.102
N4410 X4.493 Y-14.937
N4415 X4.437 Y-14.723
N4420 X4.384 Y-14.574
N4425 X4.322 Y-14.433
N4430 X4.238 Y-14.279
N4435 X4.141 Y-14.131
N4440 X4.034 Y-13.993
N4445 X3.901 Y-13.847
N4450 X3.759 Y-13.715
N4455 X3.607 Y-13.594
N4460 X3.427 Y-13.473
N4465 X3.246 Y-13.372
N4470 X3.166 Y-13.335
N4475 X2.872 Y-13.236
N4480 X2.564 Y-13.2
N4485 X2.256 Y-13.228
N4490 X1.96 Y-13.32
N4495 X1.689 Y-13.471
N4500 X1.456 Y-13.674
N4505 X1.269 Y-13.921
N4510 X1.138 Y-14.202
N4515 X1.068 Y-14.504
N4520 X1.048 Y-14.596
N4525 G3 X0.984 Y-15.067 I6.349 J-1.106
N4530 X4.493 Y-14.937 I1.763 J-0.175
N4535 G1 X4.402 Y-14.504
N4540 X4.364 Y-14.205
N4545 X4.325 Y-13.607
N4550 X4.315 Y-13.457
N4555 X4.286 Y-13.31
N4560 X4.242 Y-13.166
N4565 X4.186 Y-13.027
N4570 X4.117 Y-12.894
N4575 X4.038 Y-12.766
N4580 X3.941 Y-12.635
N4585 X3.835 Y-12.514
N4590 X3.721 Y-12.403
N4595 X3.582 Y-12.289
N4600 X3.44 Y-12.189
N4605 X3.289 Y-12.101
N4610 X2.974 Y-11.991
N4615 X2.643 Y-11.953
N4620 X2.311 Y-11.989
N4625 X1.996 Y-12.099
N4630 X1.713 Y-12.275
N4635 X1.476 Y-12.51
N4640 X1.297 Y-12.791
N4645 X1.185 Y-13.106
N4650 X1.146 Y-13.437
N4655 G3 X1.333 Y-14.226 I1.999 J0.057
N4660 X4.325 Y-13.607 I1.422 J0.664
N4665 G1 X4.323 Y-13.308
N4670 Y-12.41
N4675 X4.315 Y-12.261
N4680 X4.294 Y-12.112
N4685 X4.258 Y-11.967
N4690 X4.207 Y-11.826
N4695 X4.143 Y-11.69
N4700 X4.068 Y-11.56
N4705 X3.979 Y-11.436
N4710 X3.878 Y-11.315
N4715 X3.771 Y-11.208
N4720 X3.647 Y-11.1
N4725 X3.505 Y-10.997
N4730 X3.362 Y-10.908
N4735 X3.205 Y-10.829
N4740 X2.893 Y-10.739
N4745 X2.57 Y-10.718
N4750 X2.249 Y-10.768
N4755 X1.947 Y-10.886
N4760 X1.678 Y-11.066
N4765 X1.454 Y-11.301
N4770 X1.286 Y-11.578
N4775 X1.182 Y-11.885
N4780 X1.147 Y-12.207
N4785 X1.146 Y-13.379
N4790 Y-13.437
N4795 G3 X1.629 Y-14.14 I0.785 J0.022
N4800 X4.323 Y-12.41 I0.748 J1.797
N4805 G1 Y-11.124
N4810 X4.315 Y-10.974
N4815 X4.288 Y-10.826
N4820 X4.247 Y-10.682
N4825 X4.191 Y-10.543
N4830 X4.123 Y-10.409
N4835 X4.044 Y-10.282
N4840 X3.954 Y-10.162
N4845 X3.846 Y-10.04
N4850 X3.733 Y-9.932
N4855 X3.608 Y-9.83
N4860 X3.461 Y-9.728
N4865 X3.312 Y-9.641
N4870 X3.154 Y-9.566
N4875 X2.847 Y-9.486
N4880 X2.529 Y-9.473
N4885 X2.216 Y-9.527
N4890 X1.923 Y-9.648
N4895 X1.661 Y-9.828
N4900 X1.444 Y-10.06
N4905 X1.281 Y-10.333
N4910 X1.181 Y-10.634
N4915 X1.147 Y-10.949
N4920 Y-12.207
N4925 G3 X1.663 Y-12.918 I0.785 J0.027
N4930 X4.323 Y-11.124 I0.679 J1.863
N4935 G1 Y-9.854
N4940 X4.315 Y-9.704
N4945 X4.285 Y-9.557
N4950 X4.242 Y-9.413
N4955 X4.184 Y-9.275
N4960 X4.114 Y-9.142
N4965 X4.033 Y-9.016
N4970 X3.942 Y-8.897
N4975 X3.831 Y-8.775
N4980 X3.715 Y-8.666
N4985 X3.589 Y-8.565
N4990 X3.439 Y-8.464
N4995 X3.287 Y-8.378
N5000 X3.261 Y-8.367
N5005 X2.947 Y-8.262
N5010 X2.618 Y-8.229
N5015 X2.29 Y-8.27
N5020 X1.978 Y-8.383
N5025 X1.699 Y-8.561
N5030 X1.467 Y-8.796
N5035 X1.292 Y-9.077
N5040 X1.184 Y-9.39
N5045 X1.147 Y-9.719
N5050 Y-10.949
N5055 G3 X1.67 Y-11.662 I0.784 J0.027
N5060 X4.323 Y-9.854 I0.662 J1.878
N5065 G1 Y-8.657
N5070 X4.315 Y-8.508
N5075 X4.291 Y-8.36
N5080 X4.252 Y-8.215
N5085 X4.198 Y-8.075
N5090 X4.131 Y-7.94
N5095 X4.054 Y-7.812
N5100 X3.962 Y-7.688
N5105 X3.858 Y-7.568
N5110 X3.749 Y-7.461
N5115 X3.622 Y-7.354
N5120 X3.478 Y-7.253
N5125 X3.332 Y-7.166
N5130 X3.325 Y-7.163
N5135 X3.005 Y-7.049
N5140 X2.667 Y-7.009
N5145 X2.329 Y-7.046
N5150 X2.008 Y-7.157
N5155 X1.72 Y-7.337
N5160 X1.479 Y-7.577
N5165 X1.298 Y-7.864
N5170 X1.185 Y-8.185
N5175 X1.147 Y-8.523
N5180 Y-9.719
N5185 G3 X1.649 Y-10.424 I0.785 J0.027
N5190 X4.323 Y-8.657 I0.708 J1.835
N5195 G1 Y-7.461
N5200 X4.315 Y-7.311
N5205 X4.243 Y-7.036
N5210 X4.107 Y-6.786
N5215 X3.917 Y-6.575
N5220 X3.681 Y-6.415
N5225 X3.415 Y-6.315
N5230 X3.132 Y-6.281
N5235 G3 X2.07 Y-7.719 I0.04 J-1.141
N5240 X4.323 Y-7.461 I1.107 J0.297
N5245 G1 Y-7.327
N5250 X4.316 Y-7.177
N5255 X4.286 Y-7.028
N5260 X4.232 Y-6.878
N5265 X4.147 Y-6.729
N5270 X4.044 Y-6.602
N5275 X3.936 Y-6.505
N5280 X3.828 Y-6.43
N5285 X3.744 Y-6.383
N5290 X3.594 Y-6.324
N5295 X3.444 Y-6.291
N5300 X3.145 Y-6.281
N5305 X2.246
N5310 X2.097 Y-6.283
N5315 X1.947 Y-6.305
N5320 X1.797 Y-6.35
N5325 X1.647 Y-6.424
N5330 X1.565 Y-6.479
N5335 X1.493 Y-6.538
N5340 X1.413 Y-6.616
N5345 X1.348 Y-6.694
N5350 X1.323 Y-6.729
N5355 X1.238 Y-6.878
N5360 X1.183 Y-7.028
N5365 X1.154 Y-7.177
N5370 X1.147 Y-7.327
N5375 Y-8.523
N5380 G3 X1.464 Y-9.219 I0.999 J0.035
N5385 G1 X1.552 Y-9.302 Z-5.563
N5390 X1.639 Y-9.383 Z-5.541
N5395 X1.724 Y-9.461 Z-5.505
N5400 X1.804 Y-9.536 Z-5.455
N5405 X1.88 Y-9.607 Z-5.393
N5410 X1.949 Y-9.672 Z-5.319
N5415 X2.012 Y-9.73 Z-5.233
N5420 X2.066 Y-9.781 Z-5.138
N5425 X2.112 Y-9.823 Z-5.035
N5430 X2.148 Y-9.857 Z-4.925
N5435 X2.174 Y-9.881 Z-4.809
N5440 X2.19 Y-9.896 Z-4.691
N5445 X2.196 Y-9.901 Z-4.57
N5450 G0 Z5.
N5455 G1 X-32.522 Y19.823 F5000.
N5460 G0 Z-3.57
N5465 G1 Z-4.57 F1000.
N5470 X-32.519 Y19.816 Z-4.691
N5475 X-32.51 Y19.796 Z-4.809
N5480 X-32.495 Y19.764 Z-4.925
N5485 X-32.474 Y19.719 Z-5.035
N5490 X-32.447 Y19.662 Z-5.138
N5495 X-32.416 Y19.595 Z-5.233
N5500 X-32.379 Y19.517 Z-5.319
N5505 X-32.339 Y19.431 Z-5.393
N5510 X-32.295 Y19.338 Z-5.455
N5515 X-32.249 Y19.238 Z-5.505
N5520 X-32.2 Y19.134 Z-5.541
N5525 X-32.149 Y19.026 Z-5.563
N5530 X-32.098 Y18.917 Z-5.57
N5535 G3 X-31.599 Y18.31 I1.433 J0.671
N5540 G1 X-31.3 Y18.107
N5545 X-31. Y17.883
N5550 X-30.578 Y17.494
N5555 X-30.401 Y17.307
N5560 X-30.302 Y17.195
N5565 X-30.102 Y16.937
N5570 X-30.071 Y16.896
N5575 X-29.868 Y16.597
N5580 X-29.832 Y16.532
N5585 X-29.719 Y16.352
N5590 X-29.516 Y16.077
N5595 X-29.265 Y15.791
N5600 X-28.936 Y15.47
N5605 X-28.541 Y15.142
N5610 X-28.112 Y14.842
N5615 X-27.679 Y14.588
N5620 X-27.23 Y14.37
N5625 X-26.796 Y14.202
N5630 X-26.339 Y14.065
N5635 X-25.971 Y14.021
N5640 X-25.601 Y14.043
N5645 X-25.241 Y14.13
N5650 X-24.903 Y14.281
N5655 X-24.596 Y14.489
N5660 X-24.332 Y14.749
N5665 X-24.118 Y15.052
N5670 X-23.962 Y15.388
N5675 G3 X-24.608 Y16.646 I-0.952 J0.306
N5680 G1 X-28.636 Y17.939
N5685 G3 X-29.832 Y16.532 I-0.306 J-0.952
N5690 G1 X-29.503 Y15.94
N5695 X-29.406 Y15.7
N5700 X-29.182 Y15.102
N5705 X-28.904 Y14.27
N5710 X-28.823 Y14.064
N5715 X-28.718 Y13.849
N5720 X-28.595 Y13.641
N5725 X-28.445 Y13.428
N5730 X-28.287 Y13.237
N5735 X-28.097 Y13.043
N5740 X-27.897 Y12.869
N5745 X-27.68 Y12.709
N5750 X-27.439 Y12.559
N5755 X-27.198 Y12.435
N5760 X-26.925 Y12.321
N5765 X-26.578 Y12.245
N5770 X-26.223 Y12.237
N5775 X-25.873 Y12.297
N5780 X-25.542 Y12.424
N5785 X-25.241 Y12.613
N5790 X-24.982 Y12.856
N5795 X-24.775 Y13.144
N5800 X-24.627 Y13.467
N5805 G3 X-25.265 Y14.707 I-0.956 J0.292
N5810 G1 X-27.626 Y15.502
N5815 G3 X-28.904 Y14.27 I-0.319 J-0.948
N5820 G1 X-28.227 Y12.246
N5825 X-28.17 Y12.099
N5830 X-28.104 Y11.965
N5835 X-28.017 Y11.818
N5840 X-27.922 Y11.683
N5845 X-27.813 Y11.554
N5850 X-27.678 Y11.416
N5855 X-27.391 Y11.217
N5860 X-27.067 Y11.085
N5865 X-26.722 Y11.025
N5870 X-26.373 Y11.041
N5875 X-26.035 Y11.132
N5880 X-25.725 Y11.293
N5885 X-25.456 Y11.518
N5890 X-25.243 Y11.795
N5895 X-25.094 Y12.111
N5900 G3 X-25.003 Y12.643 I-2.038 J0.623
N5905 X-28.227 Y12.246 I-1.645 J0.071
N5910 G1 X-27.802 Y10.976
N5915 X-27.748 Y10.836
N5920 X-27.584 Y10.598
N5925 X-27.371 Y10.405
N5930 X-27.118 Y10.265
N5935 X-26.84 Y10.188
N5940 X-26.552 Y10.177
N5945 X-26.269 Y10.232
N5950 X-26.006 Y10.352
N5955 X-25.778 Y10.528
N5960 X-25.597 Y10.752
N5965 X-25.472 Y11.012
N5970 G3 X-25.488 Y11.729 I-1.093 J0.334
N5975 X-27.802 Y10.976 I-1.147 J-0.408
N5980 G1 X-27.682 Y10.616
N5985 X-27.58 Y10.317
N5990 X-27.509 Y10.172
N5995 X-27.463 Y10.099
N6000 X-27.399 Y10.018
N6005 X-27.326 Y9.943
N6010 X-27.253 Y9.881
N6015 X-27.107 Y9.788
N6020 X-27.022 Y9.749
N6025 X-26.938 Y9.719
N6030 X-26.807 Y9.688
N6035 X-26.657 Y9.675
N6040 X-26.507 Y9.685
N6045 X-26.353 Y9.719
N6050 X-26.208 Y9.776
N6055 X-26.133 Y9.817
N6060 X-26.058 Y9.866
N6065 X-25.983 Y9.926
N6070 X-25.908 Y9.999
N6075 X-25.892 Y10.018
N6080 X-25.833 Y10.093
N6085 X-25.784 Y10.168
N6090 X-25.712 Y10.317
N6095 X-25.197 Y11.812
N6100 X-24.065 Y15.102
N6105 X-23.962 Y15.388
N6110 G3 X-24.024 Y16.15 I-0.952 J0.306
N6115 G1 X-24.079 Y16.258 Z-5.563
N6120 X-24.133 Y16.363 Z-5.541
N6125 X-24.186 Y16.466 Z-5.505
N6130 X-24.236 Y16.564 Z-5.455
N6135 X-24.283 Y16.656 Z-5.393
N6140 X-24.327 Y16.74 Z-5.319
N6145 X-24.366 Y16.816 Z-5.233
N6150 X-24.4 Y16.883 Z-5.138
N6155 X-24.428 Y16.938 Z-5.035
N6160 X-24.451 Y16.982 Z-4.925
N6165 X-24.467 Y17.014 Z-4.809
N6170 X-24.477 Y17.034 Z-4.691
N6175 X-24.481 Y17.04 Z-4.57
N6180 G0 Z15.
N6185 M5
N6190 G53 G0 Z0.

(Adaptive2)
N6195 M9
N6200 M1
N6205 T2 M6
N6210 S5000 M3
N6215 G54
N6220 M8
N6225 G0 X-43.131 Y-17.829
N6230 G43 Z15. H2
N6235 T1
N6240 G0 Z5.
N6245 Z-4.974
N6250 G1 Z-5.274 F1000.
N6255 X-43.125 Y-17.824 Z-5.341
N6260 X-43.109 Y-17.809 Z-5.404
N6265 X-43.083 Y-17.785 Z-5.461
N6270 X-43.047 Y-17.753 Z-5.509
N6275 X-43.005 Y-17.715 Z-5.544
N6280 X-42.958 Y-17.672 Z-5.566
N6285 X-42.909 Y-17.627 Z-5.574
N6290 G3 X-41.816 Y-16.391 I-5.155 J5.664
N6295 G1 X-41.764 Y-16.313
N6300 X-41.663 Y-16.08
N6305 X-41.557 Y-15.768
N6310 X-41.446 Y-15.334
N6315 X-41.441 Y-15.301
N6320 X-41.433 Y-15.126
N6325 X-41.469 Y-14.955
N6330 X-41.546 Y-14.798
N6335 X-41.625 Y-14.679
N6340 X-41.719 Y-14.515
N6345 X-41.815 Y-14.282
N6350 X-41.842 Y-14.187
N6355 X-41.884 Y-14.023
N6360 X-41.908 Y-13.859
N6365 X-41.917 Y-13.695
N6370 X-41.922 Y-13.367
N6375 X-41.923 Y-13.203
N6380 Y13.203
N6385 X-41.922 Y13.367
N6390 X-41.917 Y13.695
N6395 X-41.908 Y13.859
N6400 X-41.884 Y14.023
N6405 X-41.842 Y14.187
N6410 X-41.815 Y14.282
N6415 X-41.719 Y14.515
N6420 X-41.625 Y14.679
N6425 X-41.517 Y14.843
N6430 X-41.487 Y14.881
N6435 X-41.323 Y15.064
N6440 X-41.159 Y15.207
N6445 X-41.077 Y15.268
N6450 X-40.995 Y15.322
N6455 X-40.831 Y15.414
N6460 X-40.667 Y15.488
N6465 X-40.64 Y15.499
N6470 X-40.503 Y15.547
N6475 X-40.339 Y15.59
N6480 X-40.175 Y15.616
N6485 X-40.011 Y15.631
N6490 X-39.519 Y15.636
N6495 X-34.764
N6500 X-34.6 Y15.633
N6505 X-34.272 Y15.613
N6510 X-34.108 Y15.597
N6515 X-34.08 Y15.59
N6520 X-33.752 Y15.529
N6525 X-33.034 Y15.455
N6530 X-32.313 Y15.418
N6535 X-31.591 Y15.399
N6540 X-30.869 Y15.389
N6545 X-30.147 Y15.385
N6550 X-29.425 Y15.382
N6555 X-27.981 Y15.381
N6560 X-19.887
N6565 X-19.781 Y15.389
N6570 X-19.678 Y15.413
N6575 X-19.579 Y15.452
N6580 X-19.514 Y15.485
N6585 X-19.35 Y15.541
N6590 X-19.186 Y15.585
N6595 X-19.022 Y15.616
N6600 X-18.858 Y15.631
N6605 X-18.694 Y15.636
N6610 X-17.382
N6615 X-13.938
N6620 X-13.774 Y15.629
N6625 X-13.61 Y15.612
N6630 X-13.446 Y15.584
N6635 X-13.062 Y15.517
N6640 X-12.343 Y15.45
N6645 X-11.622 Y15.417
N6650 X-10.9 Y15.4
N6655 X-10.178 Y15.391
N6660 X-9.456 Y15.387
N6665 X-9.091 Y15.386
N6670 X-8.996 Y15.392
N6675 X-8.903 Y15.411
N6680 X-8.814 Y15.442
N6685 X-8.682 Y15.499
N6690 X-8.527 Y15.551
N6695 X-8.363 Y15.594
N6700 X-8.199 Y15.62
N6705 X-8.035 Y15.631
N6710 X-7.871 Y15.636
N6715 X-4.755
N6720 X-4.591 Y15.635
N6725 X-4.263 Y15.626
N6730 X-4.099 Y15.618
N6735 X-3.936 Y15.589
N6740 X-3.542 Y15.52
N6745 X-2.823 Y15.452
N6750 X-2.102 Y15.418
N6755 X-1.38 Y15.401
N6760 X-0.658 Y15.393
N6765 X0.064 Y15.388
N6770 X0.786 Y15.386
N6775 X2.952 Y15.384
N6780 X8.698 Y15.385
N6785 X8.801 Y15.393
N6790 X8.903 Y15.416
N6795 X8.999 Y15.453
N6800 X9.097 Y15.499
N6805 X9.183 Y15.527
N6810 X9.347 Y15.578
N6815 X9.511 Y15.608
N6820 X9.675 Y15.624
N6825 X10.003 Y15.634
N6830 X10.167 Y15.636
N6835 X13.282
N6840 X13.446 Y15.633
N6845 X13.61 Y15.628
N6850 X13.774 Y15.603
N6855 X13.864 Y15.583
N6860 X14.281 Y15.513
N6865 X15. Y15.45
N6870 X15.722 Y15.418
N6875 X16.443 Y15.403
N6880 X17.165 Y15.395
N6885 X17.887 Y15.391
N6890 X18.609 Y15.389
N6895 X20.775 Y15.387
N6900 X24.065
N6905 X24.135 Y15.391
N6910 X24.203 Y15.401
N6915 X24.27 Y15.418
N6920 X24.433 Y15.468
N6925 X24.925 Y15.601
N6930 X25.417 Y15.723
N6935 X25.909 Y15.841
N6940 X26.073 Y15.868
N6945 X26.565 Y15.93
N6950 X27.057 Y15.989
N6955 X27.549 Y16.038
N6960 X27.713 Y16.047
N6965 X28.532 Y16.088
N6970 X28.696 Y16.093
N6975 X29.188 Y16.088
N6980 X30.172 Y16.044
N6985 X30.336 Y16.032
N6990 X30.751 Y15.991
N6995 X30.992 Y15.963
N7000 X31.812 Y15.867
N7005 X31.976 Y15.835
N7010 X32.304 Y15.761
N7015 X32.468 Y15.722
N7020 X32.632 Y15.682
N7025 X33.314 Y15.55
N7030 X34.031 Y15.47
N7035 X34.752 Y15.43
N7040 X35.474 Y15.41
N7045 X36.196 Y15.399
N7050 X36.918 Y15.394
N7055 X37.64 Y15.392
N7060 X39.445 Y15.39
N7065 X39.625 Y15.385
N7070 X39.798 Y15.334
N7075 X40.108 Y15.149
N7080 X40.358 Y14.888
N7085 X40.751 Y14.282
N7090 X40.968 Y13.594
N7095 X41.083 Y12.881
N7100 X41.143 Y12.161
N7105 X41.174 Y11.44
N7110 X41.19 Y10.718
N7115 X41.198 Y9.996
N7120 X41.203 Y9.274
N7125 X41.205 Y8.552
N7130 X41.207 Y6.386
N7135 X41.209 Y-2.273
N7140 X41.214 Y-2.365
N7145 X41.232 Y-2.455
N7150 X41.26 Y-2.542
N7155 X41.456 Y-3.034
N7160 X41.487 Y-3.113
N7165 X41.517 Y-3.198
N7170 X41.574 Y-3.362
N7175 X41.612 Y-3.526
N7180 X41.651 Y-3.716
N7185 X41.739 Y-4.182
N7190 X41.815 Y-4.595
N7195 X41.827 Y-4.674
N7200 X41.868 Y-5.166
N7205 X41.908 Y-5.658
N7210 X41.91 Y-5.822
N7215 X41.906 Y-6.15
N7220 X41.896 Y-6.314
N7225 X41.815 Y-7.167
N7230 X41.8 Y-7.298
N7235 X41.704 Y-7.79
N7240 X41.603 Y-8.282
N7245 X41.567 Y-8.446
N7250 X41.529 Y-8.61
N7255 X41.425 Y-9.057
N7260 X41.318 Y-9.771
N7265 X41.264 Y-10.491
N7270 X41.238 Y-11.213
N7275 X41.224 Y-11.935
N7280 X41.217 Y-12.657
N7285 X41.214 Y-13.379
N7290 X41.213 Y-13.74
N7295 X41.166 Y-13.914
N7300 X40.999 Y-14.234
N7305 X40.747 Y-14.493
N7310 X40.152 Y-14.902
N7315 X39.467 Y-15.128
N7320 X38.755 Y-15.249
N7325 X38.035 Y-15.312
N7330 X37.314 Y-15.345
N7335 X36.592 Y-15.361
N7340 X35.87 Y-15.37
N7345 X35.148 Y-15.374
N7350 X34.597 Y-15.376
N7355 X34.531 Y-15.38
N7360 X34.466 Y-15.389
N7365 X34.402 Y-15.405
N7370 X34.081 Y-15.499
N7375 X33.944 Y-15.538
N7380 X33.288 Y-15.717
N7385 X32.96 Y-15.803
N7390 X32.796 Y-15.829
N7395 X32.468 Y-15.877
N7400 X31.976 Y-15.942
N7405 X31.484 Y-16.005
N7410 X31.32 Y-16.024
N7415 X30.336 Y-16.078
N7420 X30.172 Y-16.085
N7425 X29.844 Y-16.095
N7430 X29.68 Y-16.097
N7435 X28.368 Y-16.048
N7440 X28.205 Y-16.042
N7445 X28.041 Y-16.03
N7450 X27.385 Y-15.962
N7455 X26.565 Y-15.874
N7460 X26.401 Y-15.847
N7465 X26.073 Y-15.783
N7470 X25.909 Y-15.748
N7475 X25.745 Y-15.709
N7480 X25.035 Y-15.578
N7485 X24.319 Y-15.48
N7490 X23.599 Y-15.431
N7495 X22.878 Y-15.406
N7500 X22.156 Y-15.394
N7505 X21.434 Y-15.388
N7510 X20.712 Y-15.384
N7515 X19.268 Y-15.382
N7520 X14.55
N7525 X14.452 Y-15.39
N7530 X14.357 Y-15.413
N7535 X14.266 Y-15.45
N7540 X14.102 Y-15.519
N7545 X13.938 Y-15.567
N7550 X13.774 Y-15.603
N7555 X13.61 Y-15.628
N7560 X13.446 Y-15.633
N7565 X13.282 Y-15.636
N7570 X10.167
N7575 X10.003 Y-15.634
N7580 X9.675 Y-15.624
N7585 X9.511 Y-15.608
N7590 X9.347 Y-15.578
N7595 X9.074 Y-15.529
N7600 X8.356 Y-15.456
N7605 X7.634 Y-15.42
N7610 X6.913 Y-15.402
N7615 X6.191 Y-15.393
N7620 X5.469 Y-15.388
N7625 X4.747 Y-15.386
N7630 X3.303 Y-15.384
N7635 X-3.226 Y-15.385
N7640 X-3.325 Y-15.392
N7645 X-3.421 Y-15.412
N7650 X-3.514 Y-15.447
N7655 X-3.63 Y-15.499
N7660 X-3.772 Y-15.545
N7665 X-3.936 Y-15.589
N7670 X-4.099 Y-15.618
N7675 X-4.263 Y-15.626
N7680 X-4.591 Y-15.635
N7685 X-4.755 Y-15.636
N7690 X-7.871
N7695 X-8.035 Y-15.631
N7700 X-8.199 Y-15.62
N7705 X-8.363 Y-15.594
N7710 X-8.983 Y-15.496
N7715 X-9.703 Y-15.441
N7720 X-10.424 Y-15.414
N7725 X-11.146 Y-15.4
N7730 X-11.868 Y-15.393
N7735 X-12.78 Y-15.389
N7740 X-12.88 Y-15.396
N7745 X-12.979 Y-15.418
N7750 X-13.074 Y-15.453
N7755 X-13.174 Y-15.499
N7760 X-13.282 Y-15.535
N7765 X-13.446 Y-15.584
N7770 X-13.61 Y-15.612
N7775 X-13.774 Y-15.629
N7780 X-13.938 Y-15.636
N7785 X-17.054
N7790 X-17.218 Y-15.634
N7795 X-17.546 Y-15.618
N7800 X-17.71 Y-15.606
N7805 X-17.8 Y-15.587
N7810 X-18.254 Y-15.511
N7815 X-18.974 Y-15.449
N7820 X-19.695 Y-15.419
N7825 X-20.417 Y-15.403
N7830 X-21.139 Y-15.395
N7835 X-21.861 Y-15.392
N7840 X-22.583 Y-15.39
N7845 X-24.178 Y-15.388
N7850 X-24.271 Y-15.394
N7855 X-24.361 Y-15.413
N7860 X-24.449 Y-15.443
N7865 X-24.597 Y-15.505
N7870 X-24.761 Y-15.558
N7875 X-24.925 Y-15.598
N7880 X-25.089 Y-15.623
N7885 X-25.253 Y-15.632
N7890 X-25.417 Y-15.636
N7895 X-28.205
N7900 X-28.532 Y-15.635
N7905 X-28.696 Y-15.628
N7910 X-28.86 Y-15.612
N7915 X-28.951 Y-15.593
N7920 X-29.469 Y-15.508
N7925 X-30.189 Y-15.449
N7930 X-30.91 Y-15.419
N7935 X-31.632 Y-15.404
N7940 X-32.354 Y-15.397
N7945 X-33.076 Y-15.393
N7950 X-34.52 Y-15.39
N7955 X-35.322
N7960 X-35.411 Y-15.396
N7965 X-35.499 Y-15.413
N7970 X-35.584 Y-15.441
N7975 X-35.748 Y-15.507
N7980 X-35.912 Y-15.56
N7985 X-36.076 Y-15.601
N7990 X-36.24 Y-15.623
N7995 X-36.403 Y-15.632
N8000 X-36.731 Y-15.635
N8005 X-36.895 Y-15.636
N8010 X-39.519
N8015 X-40.011 Y-15.631
N8020 X-40.175 Y-15.616
N8025 X-40.339 Y-15.59
N8030 X-40.503 Y-15.547
N8035 X-40.64 Y-15.499
N8040 X-40.667 Y-15.488
N8045 X-40.831 Y-15.414
N8050 X-40.995 Y-15.322
N8055 X-41.077 Y-15.268
N8060 X-41.159 Y-15.207
N8065 X-41.323 Y-15.064
N8070 X-41.487 Y-14.881
N8075 X-41.517 Y-14.843
N8080 X-41.546 Y-14.798
N8085 G3 X-42.089 Y-15. I-0.245 J-0.174
N8090 G1 X-42.083 Y-15.066 Z-5.566
N8095 X-42.077 Y-15.13 Z-5.544
N8100 X-42.072 Y-15.186 Z-5.509
N8105 X-42.067 Y-15.234 Z-5.461
N8110 X-42.064 Y-15.269 Z-5.404
N8115 X-42.062 Y-15.291 Z-5.341
N8120 X-42.061 Y-15.299 Z-5.274
N8125 G0 Z5.
N8130 G1 X-28.041 Y-16.172 F5000.
N8135 G0 Z-4.974
N8140 G1 Z-5.274 F1000.
N8145 X-28.046 Y-16.167 Z-5.341
N8150 X-28.063 Y-16.152 Z-5.404
N8155 X-28.089 Y-16.128 Z-5.461
N8160 X-28.124 Y-16.095 Z-5.509
N8165 X-28.165 Y-16.056 Z-5.544
N8170 X-28.212 Y-16.013 Z-5.566
N8175 X-28.261 Y-15.968 Z-5.574
N8180 G3 X-28.951 Y-15.593 I-1.077 J-1.159
N8185 G1 X-29.024 Y-15.577
N8190 X-29.188 Y-15.529
N8195 X-29.275 Y-15.499
N8200 X-29.352 Y-15.47
N8205 X-29.516 Y-15.386
N8210 X-29.608 Y-15.335
N8215 X-29.68 Y-15.285
N8220 X-29.836 Y-15.171
N8225 X-29.844 Y-15.164
N8230 X-29.934 Y-15.078
N8235 X-30.048 Y-14.981
N8240 X-30.187 Y-14.888
N8245 X-30.366 Y-14.788
N8250 X-30.593 Y-14.685
N8255 X-30.894 Y-14.576
N8260 X-31.304 Y-14.463
N8265 X-31.917 Y-14.347
N8270 X-32.635 Y-14.27
N8275 X-33.356 Y-14.231
N8280 X-34.05 Y-14.212
N8285 X-34.237 Y-14.232
N8290 X-34.412 Y-14.301
N8295 X-34.562 Y-14.414
N8300 X-34.677 Y-14.564
N8305 X-34.764 Y-14.716
N8310 X-34.851 Y-14.843
N8315 X-34.928 Y-14.934
N8320 X-34.993 Y-15.007
N8325 X-35.092 Y-15.106
N8330 X-35.166 Y-15.171
N8335 X-35.256 Y-15.243
N8340 X-35.395 Y-15.335
N8345 X-35.584 Y-15.441
N8350 G3 X-35.438 Y-16.014 I0.122 J-0.274
N8355 G1 X-30.229 Y-15.596
N8360 X-30.124 Y-15.588
N8365 G3 X-29.934 Y-15.078 I-0.024 J0.299
N8370 G1 X-30.01 Y-15.007
N8375 X-30.145 Y-14.843
N8380 X-30.172 Y-14.807
N8385 X-30.258 Y-14.679
N8390 X-30.352 Y-14.515
N8395 X-30.363 Y-14.487
N8400 X-30.428 Y-14.352
N8405 X-30.516 Y-14.23
N8410 X-30.616 Y-14.119
N8415 X-30.739 Y-14.006
N8420 X-30.875 Y-13.899
N8425 X-31.049 Y-13.784
N8430 X-31.279 Y-13.656
N8435 X-31.543 Y-13.537
N8440 X-31.899 Y-13.409
N8445 X-32.363 Y-13.283
N8450 X-32.898 Y-13.184
N8455 X-33.258 Y-13.146
N8460 X-33.523 Y-13.14
N8465 X-33.753 Y-13.153
N8470 X-33.855 Y-13.167
N8475 X-34.039 Y-13.219
N8480 X-34.203 Y-13.32
N8485 X-34.333 Y-13.461
N8490 X-34.42 Y-13.632
N8495 X-34.458 Y-13.82
N8500 G3 X-34.222 Y-14.12 I0.3 J-0.007
N8505 G1 X-33.858 Y-14.199
N8510 X-30.847 Y-14.855
N8515 X-30.708 Y-14.886
N8520 G3 X-30.363 Y-14.487 I0.064 J0.293
N8525 G1 X-30.42 Y-14.351
N8530 X-30.482 Y-14.187
N8535 X-30.649 Y-13.695
N8540 X-30.704 Y-13.555
N8545 X-30.771 Y-13.421
N8550 X-30.852 Y-13.295
N8555 X-30.945 Y-13.177
N8560 X-31.064 Y-13.051
N8565 X-31.202 Y-12.926
N8570 X-31.371 Y-12.796
N8575 X-31.586 Y-12.656
N8580 X-31.822 Y-12.528
N8585 X-32.09 Y-12.41
N8590 X-32.377 Y-12.31
N8595 X-32.672 Y-12.233
N8600 X-32.926 Y-12.188
N8605 X-33.174 Y-12.165
N8610 X-33.369 Y-12.162
N8615 X-33.57 Y-12.175
N8620 X-33.745 Y-12.201
N8625 X-33.9 Y-12.237
N8630 X-33.956 Y-12.255
N8635 X-34.153 Y-12.354
N8640 X-34.309 Y-12.509
N8645 X-34.41 Y-12.705
N8650 X-34.444 Y-12.922
N8655 Y-13.203
N8660 X-34.446 Y-13.367
N8665 X-34.45 Y-13.695
N8670 X-34.458 Y-13.82
N8675 G3 X-34.153 Y-14.127 I0.3 J-0.007
N8680 G1 X-33.85 Y-14.123
N8685 X-31.162 Y-14.084
N8690 X-30.932 Y-14.081
N8695 G3 X-30.649 Y-13.695 I-0.004 J0.3
N8700 G1 X-31.018 Y-12.609
N8705 X-31.073 Y-12.469
N8710 X-31.144 Y-12.337
N8715 X-31.228 Y-12.212
N8720 X-31.322 Y-12.096
N8725 X-31.441 Y-11.971
N8730 X-31.573 Y-11.854
N8735 X-31.731 Y-11.734
N8740 X-31.91 Y-11.62
N8745 X-32.104 Y-11.518
N8750 X-32.312 Y-11.429
N8755 X-32.534 Y-11.354
N8760 X-32.765 Y-11.296
N8765 X-32.998 Y-11.257
N8770 X-33.2 Y-11.24
N8775 X-33.41 Y-11.239
N8780 X-33.596 Y-11.254
N8785 X-33.753 Y-11.278
N8790 X-33.923 Y-11.319
N8795 X-33.963 Y-11.332
N8800 X-34.157 Y-11.432
N8805 X-34.311 Y-11.587
N8810 X-34.41 Y-11.782
N8815 X-34.444 Y-11.997
N8820 Y-12.922
N8825 G3 X-34.122 Y-13.211 I0.3 J0.01
N8830 G1 X-33.821 Y-13.188
N8835 X-31.531 Y-13.013
N8840 X-31.282 Y-12.994
N8845 G3 X-31.018 Y-12.609 I-0.023 J0.299
N8850 G1 X-31.373 Y-11.563
N8855 X-31.429 Y-11.423
N8860 X-31.501 Y-11.292
N8865 X-31.588 Y-11.169
N8870 X-31.686 Y-11.056
N8875 X-31.794 Y-10.95
N8880 X-31.919 Y-10.846
N8885 X-32.064 Y-10.744
N8890 X-32.224 Y-10.65
N8895 X-32.397 Y-10.566
N8900 X-32.586 Y-10.493
N8905 X-32.784 Y-10.434
N8910 X-32.993 Y-10.389
N8915 X-33.182 Y-10.364
N8920 X-33.369 Y-10.355
N8925 X-33.554 Y-10.361
N8930 X-33.709 Y-10.378
N8935 X-33.862 Y-10.408
N8940 X-33.932 Y-10.427
N8945 X-34.137 Y-10.522
N8950 X-34.302 Y-10.678
N8955 X-34.408 Y-10.878
N8960 X-34.444 Y-11.101
N8965 Y-11.997
N8970 G3 X-34.104 Y-12.284 I0.3 J0.01
N8975 G1 X-33.823 Y-12.246
N8980 X-31.885 Y-11.982
N8985 X-31.62 Y-11.946
N8990 G3 X-31.373 Y-11.563 I-0.04 J0.297
N8995 G1 X-31.708 Y-10.578
N9000 X-31.763 Y-10.439
N9005 X-31.84 Y-10.31
N9010 X-31.931 Y-10.191
N9015 X-32.034 Y-10.082
N9020 X-32.146 Y-9.983
N9025 X-32.271 Y-9.89
N9030 X-32.407 Y-9.805
N9035 X-32.558 Y-9.726
N9040 X-32.723 Y-9.657
N9045 X-32.898 Y-9.599
N9050 X-33.071 Y-9.556
N9055 X-33.232 Y-9.531
N9060 X-33.413 Y-9.517
N9065 X-33.571
N9070 X-33.721 Y-9.53
N9075 X-33.875 Y-9.556
N9080 X-33.917 Y-9.567
N9085 X-34.088 Y-9.635
N9090 X-34.236 Y-9.747
N9095 X-34.349 Y-9.892
N9100 X-34.42 Y-10.062
N9105 X-34.444 Y-10.245
N9110 Y-11.101
N9115 G3 X-34.086 Y-11.385 I0.3 J0.01
N9120 G1 X-33.825 Y-11.333
N9125 X-32.216 Y-11.015
N9130 X-31.937 Y-10.959
N9135 G3 X-31.708 Y-10.578 I-0.058 J0.294
N9140 G1 X-32.003 Y-9.709
N9145 X-32.058 Y-9.569
N9150 X-32.133 Y-9.439
N9155 X-32.223 Y-9.319
N9160 X-32.326 Y-9.211
N9165 X-32.44 Y-9.113
N9170 X-32.562 Y-9.026
N9175 X-32.692 Y-8.95
N9180 X-32.828 Y-8.884
N9185 X-32.978 Y-8.825
N9190 X-33.122 Y-8.782
N9195 X-33.274 Y-8.75
N9200 X-33.423 Y-8.73
N9205 X-33.573 Y-8.723
N9210 X-33.723 Y-8.729
N9215 X-33.872 Y-8.748
N9220 X-33.893 Y-8.753
N9225 X-34.071 Y-8.817
N9230 X-34.225 Y-8.928
N9235 X-34.344 Y-9.075
N9240 X-34.419 Y-9.249
N9245 X-34.444 Y-9.437
N9250 Y-10.245
N9255 G3 X-34.075 Y-10.527 I0.3 J0.01
N9260 G1 X-33.827 Y-10.468
N9265 X-32.509 Y-10.156
N9270 X-32.221 Y-10.087
N9275 G3 X-32.003 Y-9.709 I-0.069 J0.292
N9280 G1 X-32.286 Y-8.875
N9285 X-32.342 Y-8.735
N9290 X-32.417 Y-8.606
N9295 X-32.509 Y-8.487
N9300 X-32.615 Y-8.381
N9305 X-32.731 Y-8.287
N9310 X-32.857 Y-8.204
N9315 X-32.99 Y-8.135
N9320 X-33.128 Y-8.077
N9325 X-33.271 Y-8.033
N9330 X-33.418 Y-8.001
N9335 X-33.567 Y-7.984
N9340 X-33.717 Y-7.981
N9345 X-33.867 Y-7.992
N9350 X-34.052 Y-8.053
N9355 X-34.213 Y-8.162
N9360 X-34.338 Y-8.311
N9365 X-34.417 Y-8.489
N9370 X-34.444 Y-8.682
N9375 Y-9.437
N9380 G3 X-34.059 Y-9.714 I0.3 J0.01
N9385 G1 X-33.831 Y-9.646
N9390 X-32.788 Y-9.338
N9395 X-32.489 Y-9.249
N9400 G3 X-32.286 Y-8.875 I-0.085 J0.288
N9405 G1 X-32.56 Y-8.069
N9410 X-32.616 Y-7.929
N9415 X-32.696 Y-7.802
N9420 X-32.793 Y-7.688
N9425 X-32.904 Y-7.588
N9430 X-33.027 Y-7.501
N9435 X-33.158 Y-7.428
N9440 X-33.296 Y-7.371
N9445 X-33.44 Y-7.328
N9450 X-33.588 Y-7.301
N9455 X-33.737 Y-7.292
N9460 X-33.771 Y-7.293
N9465 X-33.981 Y-7.334
N9470 X-34.169 Y-7.436
N9475 X-34.317 Y-7.59
N9480 X-34.412 Y-7.781
N9485 X-34.444 Y-7.992
N9490 Y-8.682
N9495 G3 X-34.034 Y-8.95 I0.3 J0.01
N9500 G1 X-33.837 Y-8.872
N9505 X-33.052 Y-8.56
N9510 X-32.737 Y-8.434
N9515 G3 X-32.56 Y-8.069 I-0.111 J0.279
N9520 G1 X-32.796 Y-7.375
N9525 X-32.851 Y-7.236
N9530 X-32.928 Y-7.107
N9535 X-33.026 Y-6.993
N9540 X-33.139 Y-6.894
N9545 X-33.265 Y-6.814
N9550 X-33.401 Y-6.75
N9555 X-33.544 Y-6.705
N9560 X-33.692 Y-6.678
N9565 X-33.704 Y-6.677
N9570 X-33.93 Y-6.701
N9575 X-34.136 Y-6.796
N9580 X-34.301 Y-6.952
N9585 X-34.407 Y-7.152
N9590 X-34.444 Y-7.376
N9595 G3 X-34.171 Y-7.665 I0.3 J0.01
N9600 G1 X-33.821 Y-7.696
N9605 X-33.309 Y-7.742
N9610 X-33.11 Y-7.76
N9615 G3 X-32.796 Y-7.375 I0.027 J0.299
N9620 G1 X-33.02 Y-6.716
N9625 X-33.075 Y-6.577
N9630 X-33.157 Y-6.451
N9635 X-33.262 Y-6.345
N9640 X-33.384 Y-6.257
N9645 X-33.519 Y-6.192
N9650 X-33.536 Y-6.187
N9655 X-33.751 Y-6.155
N9660 X-33.966 Y-6.191
N9665 X-34.159 Y-6.291
N9670 X-34.312 Y-6.446
N9675 X-34.41 Y-6.64
N9680 X-34.444 Y-6.855
N9685 G3 X-34.13 Y-7.144 I0.3 J0.01
N9690 G1 X-33.82 Y-7.129
N9695 X-33.533 Y-7.114
N9700 X-33.292 Y-7.102
N9705 G3 X-33.007 Y-6.803 I-0.015 J0.3
N9710 G1 X-33.01 Y-6.759
N9715 X-33.02 Y-6.716
N9720 X-33.212 Y-6.15
N9725 X-33.267 Y-6.011
N9730 X-33.359 Y-5.892
N9735 X-33.544 Y-5.786
N9740 X-33.753 Y-5.743
N9745 X-33.965 Y-5.769
N9750 X-34.157 Y-5.86
N9755 X-34.311 Y-6.008
N9760 X-34.41 Y-6.197
N9765 X-34.444 Y-6.407
N9770 G3 X-34.072 Y-6.688 I0.3 J0.01
N9775 G1 X-33.828 Y-6.627
N9780 X-33.718 Y-6.6
N9785 X-33.427 Y-6.528
N9790 G3 X-33.212 Y-6.15 I-0.072 J0.291
N9795 G1 X-33.354 Y-5.732
N9800 X-33.409 Y-5.593
N9805 X-33.506 Y-5.478
N9810 X-33.672 Y-5.395
N9815 X-33.854 Y-5.367
N9820 X-34.037 Y-5.397
N9825 X-34.201 Y-5.481
N9830 X-34.332 Y-5.612
N9835 X-34.415 Y-5.777
N9840 X-34.444 Y-5.96
N9845 X-34.436 Y-6.032
N9850 X-34.415 Y-6.101
N9855 G3 X-33.354 Y-5.732 I0.522 J0.207
N9860 G1 X-33.483 Y-5.353
N9865 X-33.538 Y-5.214
N9870 X-33.638 Y-5.102
N9875 X-33.81 Y-5.032
N9880 X-33.996 Y-5.026
N9885 X-34.172 Y-5.085
N9890 X-34.317 Y-5.202
N9895 X-34.411 Y-5.362
N9900 X-34.444 Y-5.545
N9905 X-34.437 Y-5.608
N9910 X-34.419 Y-5.67
N9915 G3 X-33.483 Y-5.353 I0.463 J0.174
N9920 G1 X-33.602 Y-5.002
N9925 X-33.657 Y-4.863
N9930 X-33.806 Y-4.761
N9935 X-33.982 Y-4.725
N9940 X-34.159 Y-4.759
N9945 X-34.309 Y-4.858
N9950 X-34.409 Y-5.008
N9955 X-34.444 Y-5.184
N9960 X-34.437 Y-5.24
N9965 X-34.421 Y-5.294
N9970 G3 X-33.602 Y-5.002 I0.402 J0.166
N9975 G1 X-33.702 Y-4.707
N9980 X-33.758 Y-4.568
N9985 X-33.865 Y-4.463
N9990 X-34.022 Y-4.423
N9995 X-34.182 Y-4.449
N10000 X-34.319 Y-4.535
N10005 X-34.412 Y-4.669
N10010 X-34.444 Y-4.828
N10015 X-34.439 Y-4.877
N10020 G3 X-33.702 Y-4.707 I0.374 J0.061
N10025 G1 X-33.805 Y-4.406
N10030 X-33.86 Y-4.267
N10035 X-34. Y-4.19
N10040 X-34.16 Y-4.183
N10045 X-34.306 Y-4.249
N10050 X-34.408 Y-4.372
N10055 X-34.444 Y-4.528
N10060 X-34.44 Y-4.57
N10065 X-34.428 Y-4.611
N10070 G3 X-33.805 Y-4.406 I0.309 J0.11
N10075 G1 X-33.853 Y-4.264
N10080 X-33.873 Y-4.223
N10085 X-33.902 Y-4.182
N10090 X-33.923 Y-4.16
N10095 X-33.944 Y-4.141
N10100 X-33.985 Y-4.113
N10105 X-34.026 Y-4.094
N10110 X-34.067 Y-4.082
N10115 X-34.108 Y-4.076
N10120 X-34.149 Y-4.075
N10125 X-34.19 Y-4.08
N10130 X-34.231 Y-4.091
N10135 X-34.272 Y-4.109
N10140 X-34.295 Y-4.122
N10145 X-34.318 Y-4.139
N10150 X-34.364 Y-4.182
N10155 X-34.391 Y-4.216
N10160 X-34.411 Y-4.249
N10165 X-34.426 Y-4.282
N10170 X-34.436 Y-4.316
N10175 X-34.442 Y-4.346
N10180 X-34.444 Y-4.51
N10185 Y-7.992
N10190 G0 Z5.
N10195 G1 X-16.892 Y-16.169 F5000.
N10200 G0 Z-4.974
N10205 G1 Z-5.274 F1000.
N10210 X-16.897 Y-16.163 Z-5.341
N10215 X-16.914 Y-16.148 Z-5.404
N10220 X-16.94 Y-16.124 Z-5.461
N10225 X-16.974 Y-16.091 Z-5.509
N10230 X-17.016 Y-16.053 Z-5.544
N10235 X-17.062 Y-16.009 Z-5.566
N10240 X-17.111 Y-15.964 Z-5.574
N10245 G3 X-17.8 Y-15.587 I-1.081 J-1.156
N10250 G1 X-17.874 Y-15.57
N10255 X-18.038 Y-15.519
N10260 X-18.095 Y-15.499
N10265 X-18.202 Y-15.454
N10270 X-18.366 Y-15.372
N10275 X-18.425 Y-15.335
N10280 X-18.53 Y-15.264
N10285 X-18.654 Y-15.171
N10290 X-18.694 Y-15.133
N10295 X-18.82 Y-15.024
N10300 X-18.942 Y-14.935
N10305 X-19.099 Y-14.838
N10310 X-19.3 Y-14.737
N10315 X-19.558 Y-14.631
N10320 X-19.906 Y-14.52
N10325 X-20.398 Y-14.405
N10330 X-21.113 Y-14.299
N10335 X-21.833 Y-14.245
N10340 X-22.554 Y-14.217
N10345 X-22.911 Y-14.21
N10350 X-23.1 Y-14.232
N10355 X-23.275 Y-14.304
N10360 X-23.425 Y-14.42
N10365 X-23.538 Y-14.572
N10370 X-23.597 Y-14.679
N10375 X-23.613 Y-14.706
N10380 X-23.71 Y-14.843
N10385 X-23.777 Y-14.93
N10390 X-23.941 Y-15.102
N10395 X-24.022 Y-15.171
N10400 X-24.105 Y-15.237
N10405 X-24.245 Y-15.335
N10410 X-24.433 Y-15.436
N10415 X-24.449 Y-15.443
N10420 G3 X-24.303 Y-16.014 I0.126 J-0.272
N10425 G1 X-18.989 Y-15.649
N10430 X-18.887 Y-15.642
N10435 G3 X-18.694 Y-15.133 I-0.021 J0.299
N10440 G1 X-18.858 Y-14.977
N10445 X-18.964 Y-14.843
N10450 X-19.022 Y-14.768
N10455 X-19.081 Y-14.679
N10460 X-19.17 Y-14.515
N10465 X-19.186 Y-14.483
N10470 X-19.254 Y-14.35
N10475 X-19.343 Y-14.229
N10480 X-19.443 Y-14.117
N10485 X-19.557 Y-14.012
N10490 X-19.707 Y-13.894
N10495 X-19.891 Y-13.773
N10500 X-20.102 Y-13.656
N10505 X-20.383 Y-13.53
N10510 X-20.73 Y-13.406
N10515 X-21.208 Y-13.277
N10520 X-21.744 Y-13.179
N10525 X-22.112 Y-13.141
N10530 X-22.374 Y-13.135
N10535 X-22.611 Y-13.149
N10540 X-22.796 Y-13.202
N10545 X-22.959 Y-13.302
N10550 X-23.089 Y-13.442
N10555 X-23.176 Y-13.613
N10560 X-23.375 Y-14.187
N10565 X-23.449 Y-14.389
N10570 X-23.506 Y-14.515
N10575 X-23.538 Y-14.572
N10580 G3 X-23.261 Y-15.008 I0.268 J-0.135
N10585 G1 X-23.097 Y-15.003
N10590 X-19.672 Y-14.896
N10595 X-19.457 Y-14.889
N10600 G3 X-19.186 Y-14.483 I-0.009 J0.3
N10605 G1 X-19.241 Y-14.351
N10610 X-19.294 Y-14.187
N10615 X-19.337 Y-14.023
N10620 X-19.36 Y-13.859
N10625 X-19.382 Y-13.71
N10630 X-19.434 Y-13.57
N10635 X-19.504 Y-13.437
N10640 X-19.587 Y-13.312
N10645 X-19.681 Y-13.195
N10650 X-19.801 Y-13.068
N10655 X-19.952 Y-12.932
N10660 X-20.123 Y-12.802
N10665 X-20.35 Y-12.656
N10670 X-20.594 Y-12.525
N10675 X-20.881 Y-12.4
N10680 X-21.182 Y-12.297
N10685 X-21.487 Y-12.219
N10690 X-21.728 Y-12.178
N10695 X-21.964 Y-12.156
N10700 X-22.152 Y-12.155
N10705 X-22.222 Y-12.16
N10710 X-22.421 Y-12.203
N10715 X-22.598 Y-12.302
N10720 X-22.74 Y-12.448
N10725 X-22.834 Y-12.628
N10730 X-23.176 Y-13.613
N10735 G3 X-22.904 Y-14.001 I0.287 J-0.088
N10740 G1 X-22.665 Y-14.013
N10745 X-19.967 Y-14.15
N10750 X-19.675 Y-14.165
N10755 G3 X-19.36 Y-13.859 I0.015 J0.3
N10760 G1 X-19.37 Y-13.695
N10765 X-19.374 Y-13.367
N10770 X-19.376 Y-13.112
N10775 X-19.383 Y-12.963
N10780 X-19.418 Y-12.817
N10785 X-19.469 Y-12.676
N10790 X-19.535 Y-12.541
N10795 X-19.613 Y-12.413
N10800 X-19.71 Y-12.279
N10805 X-19.829 Y-12.14
N10810 X-19.969 Y-12.001
N10815 X-20.14 Y-11.856
N10820 X-20.326 Y-11.722
N10825 X-20.535 Y-11.596
N10830 X-20.765 Y-11.482
N10835 X-21.005 Y-11.385
N10840 X-21.219 Y-11.319
N10845 X-21.438 Y-11.27
N10850 X-21.628 Y-11.243
N10855 X-21.799 Y-11.232
N10860 X-21.865 Y-11.234
N10865 X-22.074 Y-11.27
N10870 X-22.263 Y-11.367
N10875 X-22.414 Y-11.516
N10880 X-22.513 Y-11.704
N10885 X-22.834 Y-12.628
N10890 G3 X-22.587 Y-13.014 I0.287 J-0.088
N10895 G1 X-22.325 Y-13.049
N10900 X-19.997 Y-13.361
N10905 X-19.715 Y-13.399
N10910 G3 X-19.376 Y-13.112 I0.04 J0.297
N10915 G1 Y-12.219
N10920 X-19.383 Y-12.069
N10925 X-19.411 Y-11.921
N10930 X-19.456 Y-11.778
N10935 X-19.515 Y-11.641
N10940 X-19.588 Y-11.509
N10945 X-19.672 Y-11.38
N10950 X-19.781 Y-11.241
N10955 X-19.906 Y-11.104
N10960 X-20.048 Y-10.973
N10965 X-20.213 Y-10.843
N10970 X-20.395 Y-10.722
N10975 X-20.589 Y-10.614
N10980 X-20.779 Y-10.527
N10985 X-20.959 Y-10.462
N10990 X-21.151 Y-10.41
N10995 X-21.312 Y-10.38
N11000 X-21.473 Y-10.363
N11005 X-21.531 Y-10.361
N11010 X-21.749 Y-10.39
N11015 X-21.947 Y-10.486
N11020 X-22.106 Y-10.638
N11025 X-22.21 Y-10.831
N11030 X-22.513 Y-11.704
N11035 G3 X-22.274 Y-12.088 I0.287 J-0.088
N11040 G1 X-22.005 Y-12.132
N11045 X-19.996 Y-12.46
N11050 X-19.724 Y-12.504
N11055 G3 X-19.376 Y-12.219 I0.048 J0.296
N11060 G1 Y-11.235
N11065 X-19.383 Y-11.085
N11070 X-19.414 Y-10.938
N11075 X-19.462 Y-10.796
N11080 X-19.525 Y-10.66
N11085 X-19.599 Y-10.529
N11090 X-19.685 Y-10.405
N11095 X-19.79 Y-10.277
N11100 X-19.912 Y-10.149
N11105 X-20.048 Y-10.029
N11110 X-20.197 Y-9.916
N11115 X-20.361 Y-9.812
N11120 X-20.514 Y-9.731
N11125 X-20.679 Y-9.661
N11130 X-20.844 Y-9.605
N11135 X-20.989 Y-9.569
N11140 X-21.138 Y-9.545
N11145 X-21.205 Y-9.539
N11150 X-21.434 Y-9.558
N11155 X-21.644 Y-9.65
N11160 X-21.814 Y-9.805
N11165 X-21.924 Y-10.007
N11170 X-22.21 Y-10.831
N11175 G3 X-21.963 Y-11.217 I0.287 J-0.088
N11180 G1 X-21.701 Y-11.253
N11185 X-19.997 Y-11.483
N11190 X-19.716 Y-11.521
N11195 G3 X-19.376 Y-11.235 I0.04 J0.297
N11200 G1 Y-10.324
N11205 X-19.383 Y-10.174
N11210 X-19.41 Y-10.027
N11215 X-19.456 Y-9.884
N11220 X-19.518 Y-9.747
N11225 X-19.592 Y-9.617
N11230 X-19.679 Y-9.494
N11235 X-19.775 Y-9.379
N11240 X-19.885 Y-9.268
N11245 X-20.01 Y-9.16
N11250 X-20.139 Y-9.065
N11255 X-20.267 Y-8.987
N11260 X-20.415 Y-8.911
N11265 X-20.554 Y-8.854
N11270 X-20.697 Y-8.808
N11275 X-20.844 Y-8.776
N11280 X-20.9 Y-8.768
N11285 X-21.091 Y-8.769
N11290 X-21.275 Y-8.821
N11295 X-21.438 Y-8.921
N11300 X-21.568 Y-9.062
N11305 X-21.655 Y-9.232
N11310 X-21.924 Y-10.007
N11315 G3 X-21.67 Y-10.394 I0.287 J-0.088
N11320 G1 X-21.414 Y-10.422
N11325 X-19.998 Y-10.58
N11330 X-19.709 Y-10.612
N11335 G3 X-19.376 Y-10.324 I0.033 J0.298
N11340 G1 Y-9.43
N11345 X-19.383 Y-9.281
N11350 X-19.411 Y-9.133
N11355 X-19.459 Y-8.991
N11360 X-19.524 Y-8.856
N11365 X-19.602 Y-8.728
N11370 X-19.693 Y-8.608
N11375 X-19.794 Y-8.498
N11380 X-19.905 Y-8.397
N11385 X-20.024 Y-8.306
N11390 X-20.151 Y-8.226
N11395 X-20.285 Y-8.157
N11400 X-20.424 Y-8.102
N11405 X-20.568 Y-8.06
N11410 X-20.608 Y-8.052
N11415 X-20.807 Y-8.042
N11420 X-21.001 Y-8.088
N11425 X-21.174 Y-8.188
N11430 X-21.312 Y-8.332
N11435 X-21.404 Y-8.509
N11440 X-21.655 Y-9.232
N11445 G3 X-21.386 Y-9.62 I0.287 J-0.088
N11450 G1 X-21.144 Y-9.635
N11455 X-20. Y-9.702
N11460 X-19.693 Y-9.719
N11465 G3 X-19.376 Y-9.43 I0.018 J0.299
N11470 G1 Y-8.61
N11475 X-19.383 Y-8.461
N11480 X-19.409 Y-8.313
N11485 X-19.458 Y-8.171
N11490 X-19.524 Y-8.036
N11495 X-19.606 Y-7.911
N11500 X-19.701 Y-7.795
N11505 X-19.808 Y-7.69
N11510 X-19.926 Y-7.597
N11515 X-20.052 Y-7.516
N11520 X-20.187 Y-7.451
N11525 X-20.328 Y-7.399
N11530 X-20.342 Y-7.395
N11535 X-20.548 Y-7.375
N11540 X-20.75 Y-7.416
N11545 X-20.932 Y-7.515
N11550 X-21.077 Y-7.662
N11555 X-21.173 Y-7.845
N11560 G3 X-21.031 Y-8.196 I0.287 J-0.088
N11565 G1 X-20.702 Y-8.377
N11570 X-19.972 Y-8.779
N11575 X-19.82 Y-8.863
N11580 G3 X-19.376 Y-8.61 I0.145 J0.263
N11585 G1 Y-7.79
N11590 X-19.383 Y-7.641
N11595 X-19.42 Y-7.495
N11600 X-19.478 Y-7.357
N11605 X-19.555 Y-7.228
N11610 X-19.649 Y-7.112
N11615 X-19.757 Y-7.008
N11620 X-19.878 Y-6.918
N11625 X-20.009 Y-6.845
N11630 X-20.035 Y-6.834
N11635 X-20.257 Y-6.781
N11640 X-20.483 Y-6.803
N11645 X-20.691 Y-6.896
N11650 X-20.858 Y-7.05
N11655 X-20.966 Y-7.25
N11660 G3 X-20.8 Y-7.613 I0.287 J-0.088
N11665 G1 X-20.481 Y-7.753
N11670 X-19.98 Y-7.974
N11675 X-19.796 Y-8.055
N11680 G3 X-19.376 Y-7.79 I0.121 J0.275
N11685 G1 Y-7.085
N11690 X-19.383 Y-6.935
N11695 X-19.423 Y-6.79
N11700 X-19.491 Y-6.656
N11705 X-19.579 Y-6.535
N11710 X-19.685 Y-6.43
N11715 X-19.714 Y-6.408
N11720 X-19.907 Y-6.308
N11725 X-20.122 Y-6.272
N11730 X-20.337 Y-6.304
N11735 X-20.532 Y-6.4
N11740 X-20.688 Y-6.551
N11745 X-20.79 Y-6.743
N11750 G3 X-20.588 Y-7.119 I0.287 J-0.088
N11755 G1 X-20.291 Y-7.206
N11760 X-19.989 Y-7.295
N11765 X-19.76 Y-7.362
N11770 G3 X-19.376 Y-7.085 I0.085 J0.288
N11775 G1 Y-6.478
N11780 X-19.383 Y-6.328
N11785 X-19.433 Y-6.187
N11790 X-19.575 Y-6.024
N11795 X-19.762 Y-5.915
N11800 X-19.973 Y-5.87
N11805 X-20.188 Y-5.894
N11810 X-20.384 Y-5.985
N11815 X-20.542 Y-6.133
N11820 X-20.645 Y-6.323
N11825 G3 X-20.383 Y-6.711 I0.287 J-0.088
N11830 G1 X-20.134 Y-6.731
N11835 X-19.999 Y-6.742
N11840 X-19.7 Y-6.767
N11845 G3 X-19.376 Y-6.478 I0.025 J0.299
N11850 G1 Y-6.019
N11855 X-19.383 Y-5.87
N11860 X-19.442 Y-5.731
N11865 X-19.574 Y-5.601
N11870 X-19.741 Y-5.518
N11875 X-19.924 Y-5.488
N11880 X-20.108 Y-5.517
N11885 X-20.275 Y-5.6
N11890 X-20.408 Y-5.73
N11895 X-20.496 Y-5.894
N11900 X-20.511 Y-5.968
N11905 X-20.512 Y-6.044
N11910 G3 X-19.376 Y-6.019 I0.568 J0.044
N11915 G1 Y-5.609
N11920 X-19.383 Y-5.459
N11925 X-19.447 Y-5.323
N11930 X-19.59 Y-5.204
N11935 X-19.765 Y-5.142
N11940 X-19.951 Y-5.144
N11945 X-20.125 Y-5.21
N11950 X-20.266 Y-5.331
N11955 X-20.356 Y-5.493
N11960 X-20.37 Y-5.558
N11965 X-20.372 Y-5.624
N11970 G3 X-19.376 Y-5.609 I0.498 J0.033
N11975 G1 Y-5.246
N11980 X-19.383 Y-5.096
N11985 X-19.492 Y-4.952
N11990 X-19.647 Y-4.861
N11995 X-19.826 Y-4.836
N12000 X-20.001 Y-4.881
N12005 X-20.145 Y-4.99
N12010 X-20.236 Y-5.146
N12015 X-20.248 Y-5.203
N12020 X-20.249 Y-5.261
N12025 G3 X-19.376 Y-5.246 I0.436 J0.03
N12030 G1 Y-4.918
N12035 X-19.383 Y-4.768
N12040 X-19.483 Y-4.649
N12045 X-19.62 Y-4.575
N12050 X-19.775 Y-4.558
N12055 X-19.925 Y-4.601
N12060 X-20.048 Y-4.696
N12065 X-20.127 Y-4.831
N12070 X-20.137 Y-4.881
N12075 X-20.138 Y-4.931
N12080 G3 X-19.376 Y-4.918 I0.381 J0.027
N12085 G1 Y-4.625
N12090 X-19.383 Y-4.475
N12095 X-19.495 Y-4.36
N12100 X-19.646 Y-4.305
N12105 X-19.805 Y-4.322
N12110 X-19.941 Y-4.407
N12115 X-20.026 Y-4.543
N12120 X-20.036 Y-4.586
N12125 X-20.037 Y-4.63
N12130 G3 X-19.376 Y-4.625 I0.331 J0.017
N12135 G1 Y-4.51
N12140 X-19.378 Y-4.469
N12145 X-19.385 Y-4.428
N12150 X-19.399 Y-4.387
N12155 X-19.42 Y-4.346
N12160 X-19.437 Y-4.321
N12165 X-19.459 Y-4.295
N12170 X-19.486 Y-4.267
N12175 X-19.514 Y-4.245
N12180 X-19.555 Y-4.22
N12185 X-19.596 Y-4.203
N12190 X-19.637 Y-4.192
N12195 X-19.678 Y-4.188
N12200 X-19.719 Y-4.189
N12205 X-19.76 Y-4.196
N12210 X-19.801 Y-4.209
N12215 X-19.842 Y-4.229
N12220 X-19.877 Y-4.254
N12225 X-19.913 Y-4.288
N12230 X-19.936 Y-4.317
N12235 X-19.954 Y-4.346
N12240 X-20.006 Y-4.482
N12245 X-21.404 Y-8.509
N12250 G0 Z5.
N12255 G1 X-7.48 Y-16.214 F5000.
N12260 G0 Z-4.974
N12265 G1 Z-5.274 F1000.
N12270 X-7.486 Y-16.208 Z-5.341
N12275 X-7.501 Y-16.192 Z-5.404
N12280 X-7.526 Y-16.167 Z-5.461
N12285 X-7.56 Y-16.133 Z-5.509
N12290 X-7.599 Y-16.093 Z-5.544
N12295 X-7.644 Y-16.047 Z-5.566
N12300 X-7.691 Y-16. Z-5.574
N12305 G3 X-8.363 Y-15.594 I-1.129 J-1.109
N12310 G1 X-8.527 Y-15.551
N12315 X-8.682 Y-15.499
N12320 X-8.855 Y-15.425
N12325 X-9.019 Y-15.334
N12330 X-9.183 Y-15.22
N12335 X-9.241 Y-15.171
N12340 X-9.347 Y-15.078
N12345 X-9.46 Y-14.979
N12350 X-9.597 Y-14.887
N12355 X-9.775 Y-14.788
N12360 X-10.002 Y-14.684
N12365 X-10.3 Y-14.575
N12370 X-10.709 Y-14.462
N12375 X-11.316 Y-14.347
N12380 X-11.509 Y-14.326
N12385 X-11.71 Y-14.333
N12390 X-11.901 Y-14.397
N12395 X-12.065 Y-14.513
N12400 X-12.19 Y-14.671
N12405 X-12.195 Y-14.679
N12410 X-12.305 Y-14.843
N12415 X-12.444 Y-15.007
N12420 X-12.462 Y-15.027
N12425 X-12.626 Y-15.177
N12430 X-12.79 Y-15.293
N12435 X-12.954 Y-15.398
N12440 X-13.074 Y-15.453
N12445 G3 X-12.9 Y-16.019 I0.135 J-0.268
N12450 G1 X-9.671 Y-15.591
N12455 X-9.533 Y-15.573
N12460 G3 X-9.347 Y-15.078 I-0.039 J0.297
N12465 G1 X-9.414 Y-15.007
N12470 X-9.511 Y-14.9
N12475 X-9.554 Y-14.843
N12480 X-9.666 Y-14.679
N12485 X-9.675 Y-14.664
N12490 X-9.756 Y-14.515
N12495 X-9.769 Y-14.487
N12500 X-9.836 Y-14.354
N12505 X-9.924 Y-14.232
N12510 X-10.024 Y-14.12
N12515 X-10.146 Y-14.007
N12520 X-10.28 Y-13.901
N12525 X-10.426 Y-13.804
N12530 X-10.58 Y-13.718
N12535 X-10.736 Y-13.647
N12540 X-10.877 Y-13.596
N12545 X-11.028 Y-13.555
N12550 X-11.178 Y-13.527
N12555 X-11.191 Y-13.525
N12560 X-11.39 Y-13.533
N12565 X-11.578 Y-13.596
N12570 X-11.742 Y-13.709
N12575 X-11.866 Y-13.864
N12580 X-11.942 Y-14.048
N12585 X-11.978 Y-14.187
N12590 X-12.032 Y-14.351
N12595 X-12.101 Y-14.515
N12600 X-12.134 Y-14.575
N12605 X-12.19 Y-14.671
N12610 G3 X-11.892 Y-15.11 I0.265 J-0.141
N12615 G1 X-11.759 Y-15.095
N12620 X-10.245 Y-14.924
N12625 X-10.013 Y-14.898
N12630 G3 X-9.769 Y-14.487 I-0.034 J0.298
N12635 G1 X-9.829 Y-14.351
N12640 X-9.839 Y-14.325
N12645 X-9.881 Y-14.187
N12650 X-9.923 Y-14.023
N12655 X-9.947 Y-13.859
N12660 X-9.968 Y-13.71
N12665 X-10.024 Y-13.571
N12670 X-10.098 Y-13.441
N12675 X-10.188 Y-13.32
N12680 X-10.29 Y-13.211
N12685 X-10.404 Y-13.113
N12690 X-10.527 Y-13.028
N12695 X-10.659 Y-12.956
N12700 X-10.798 Y-12.899
N12705 X-10.942 Y-12.857
N12710 X-11.09 Y-12.831
N12715 X-11.154 Y-12.826
N12720 X-11.379 Y-12.848
N12725 X-11.586 Y-12.941
N12730 X-11.752 Y-13.094
N12735 X-11.86 Y-13.292
N12740 X-11.9 Y-13.515
N12745 X-11.903 Y-13.695
N12750 X-11.912 Y-13.859
N12755 X-11.936 Y-14.023
N12760 X-11.942 Y-14.048
N12765 G3 X-11.597 Y-14.408 I0.293 J-0.064
N12770 G1 X-11.403 Y-14.373
N12775 X-10.549 Y-14.223
N12780 X-10.195 Y-14.161
N12785 G3 X-9.947 Y-13.859 I-0.052 J0.295
N12790 G1 X-9.956 Y-13.695
N12795 X-9.961 Y-13.367
N12800 X-9.962 Y-13.236
N12805 X-9.971 Y-13.086
N12810 X-10.008 Y-12.941
N12815 X-10.068 Y-12.804
N12820 X-10.148 Y-12.676
N12825 X-10.243 Y-12.56
N12830 X-10.352 Y-12.457
N12835 X-10.472 Y-12.367
N12840 X-10.601 Y-12.291
N12845 X-10.738 Y-12.229
N12850 X-10.881 Y-12.185
N12855 X-11.028 Y-12.155
N12860 X-11.178 Y-12.142
N12865 X-11.218 Y-12.143
N12870 X-11.429 Y-12.183
N12875 X-11.619 Y-12.284
N12880 X-11.768 Y-12.438
N12885 X-11.864 Y-12.631
N12890 X-11.897 Y-12.843
N12895 Y-13.203
N12900 X-11.9 Y-13.485
N12905 Y-13.515
N12910 G3 X-11.539 Y-13.802 I0.3 J0.006
N12915 G1 X-11.286 Y-13.749
N12920 X-10.577 Y-13.6
N12925 X-10.2 Y-13.521
N12930 G3 X-9.962 Y-13.236 I-0.062 J0.294
N12935 G1 Y-12.547
N12940 X-9.97 Y-12.397
N12945 X-10.007 Y-12.251
N12950 X-10.067 Y-12.114
N12955 X-10.148 Y-11.987
N12960 X-10.243 Y-11.872
N12965 X-10.352 Y-11.769
N12970 X-10.472 Y-11.679
N12975 X-10.603 Y-11.605
N12980 X-10.74 Y-11.544
N12985 X-10.883 Y-11.499
N12990 X-11.03 Y-11.471
N12995 X-11.18 Y-11.459
N13000 X-11.218 Y-11.46
N13005 X-11.429 Y-11.499
N13010 X-11.618 Y-11.601
N13015 X-11.768 Y-11.755
N13020 X-11.864 Y-11.947
N13025 X-11.897 Y-12.16
N13030 Y-12.843
N13035 G3 X-11.532 Y-13.125 I0.3 J0.01
N13040 G1 X-11.279 Y-13.069
N13045 X-10.578 Y-12.914
N13050 X-10.197 Y-12.829
N13055 G3 X-9.962 Y-12.547 I-0.065 J0.293
N13060 G1 Y-11.841
N13065 X-9.97 Y-11.691
N13070 X-10.011 Y-11.547
N13075 X-10.075 Y-11.411
N13080 X-10.157 Y-11.286
N13085 X-10.255 Y-11.172
N13090 X-10.366 Y-11.071
N13095 X-10.488 Y-10.984
N13100 X-10.619 Y-10.911
N13105 X-10.757 Y-10.853
N13110 X-10.901 Y-10.81
N13115 X-11.049 Y-10.784
N13120 X-11.198 Y-10.774
N13125 X-11.229 Y-10.775
N13130 X-11.437 Y-10.817
N13135 X-11.624 Y-10.92
N13140 X-11.771 Y-11.074
N13145 X-11.865 Y-11.264
N13150 X-11.897 Y-11.475
N13155 Y-12.16
N13160 G3 X-11.527 Y-12.441 I0.3 J0.01
N13165 G1 X-11.28 Y-12.382
N13170 X-10.577 Y-12.214
N13175 X-10.192 Y-12.122
N13180 G3 X-9.962 Y-11.841 I-0.07 J0.292
N13185 G1 Y-11.185
N13190 X-9.97 Y-11.035
N13195 X-10.005 Y-10.889
N13200 X-10.064 Y-10.751
N13205 X-10.143 Y-10.624
N13210 X-10.238 Y-10.508
N13215 X-10.347 Y-10.405
N13220 X-10.467 Y-10.314
N13225 X-10.596 Y-10.239
N13230 X-10.733 Y-10.178
N13235 X-10.876 Y-10.132
N13240 X-11.023 Y-10.104
N13245 X-11.173 Y-10.09
N13250 X-11.213 Y-10.091
N13255 X-11.426 Y-10.13
N13260 X-11.616 Y-10.231
N13265 X-11.767 Y-10.385
N13270 X-11.864 Y-10.578
N13275 X-11.897 Y-10.791
N13280 Y-11.475
N13285 G3 X-11.533 Y-11.757 I0.3 J0.01
N13290 G1 X-11.279 Y-11.702
N13295 X-10.578 Y-11.55
N13300 X-10.198 Y-11.468
N13305 G3 X-9.962 Y-11.185 I-0.064 J0.293
N13310 G1 Y-10.488
N13315 X-9.97 Y-10.338
N13320 X-10.008 Y-10.193
N13325 X-10.069 Y-10.056
N13330 X-10.15 Y-9.93
N13335 X-10.246 Y-9.815
N13340 X-10.356 Y-9.713
N13345 X-10.476 Y-9.624
N13350 X-10.607 Y-9.55
N13355 X-10.744 Y-9.49
N13360 X-10.888 Y-9.446
N13365 X-11.035 Y-9.418
N13370 X-11.185 Y-9.406
N13375 X-11.221 Y-9.408
N13380 X-11.431 Y-9.448
N13385 X-11.62 Y-9.55
N13390 X-11.769 Y-9.704
N13395 X-11.864 Y-9.896
N13400 X-11.897 Y-10.107
N13405 Y-10.791
N13410 G3 X-11.531 Y-11.073 I0.3 J0.01
N13415 G1 X-11.279 Y-11.016
N13420 X-10.578 Y-10.857
N13425 X-10.196 Y-10.77
N13430 G3 X-9.962 Y-10.488 I-0.066 J0.293
N13435 G1 Y-9.832
N13440 X-9.97 Y-9.682
N13445 X-10.002 Y-9.536
N13450 X-10.059 Y-9.397
N13455 X-10.136 Y-9.268
N13460 X-10.23 Y-9.151
N13465 X-10.337 Y-9.047
N13470 X-10.456 Y-8.955
N13475 X-10.585 Y-8.878
N13480 X-10.721 Y-8.816
N13485 X-10.863 Y-8.769
N13490 X-11.01 Y-8.739
N13495 X-11.16 Y-8.724
N13500 X-11.206 Y-8.725
N13505 X-11.42 Y-8.761
N13510 X-11.613 Y-8.862
N13515 X-11.765 Y-9.016
N13520 X-11.863 Y-9.21
N13525 X-11.897 Y-9.425
N13530 Y-10.107
N13535 G3 X-11.536 Y-10.391 I0.3 J0.01
N13540 G1 X-11.278 Y-10.337
N13545 X-10.579 Y-10.193
N13550 X-10.202 Y-10.116
N13555 G3 X-9.962 Y-9.832 I-0.061 J0.294
N13560 G1 Y-9.102
N13565 X-9.97 Y-8.953
N13570 X-10.011 Y-8.808
N13575 X-10.075 Y-8.673
N13580 X-10.158 Y-8.548
N13585 X-10.257 Y-8.435
N13590 X-10.368 Y-8.334
N13595 X-10.49 Y-8.247
N13600 X-10.621 Y-8.175
N13605 X-10.76 Y-8.116
N13610 X-10.904 Y-8.074
N13615 X-11.052 Y-8.049
N13620 X-11.201 Y-8.039
N13625 X-11.231 Y-8.04
N13630 X-11.439 Y-8.083
N13635 X-11.625 Y-8.185
N13640 X-11.771 Y-8.339
N13645 X-11.865 Y-8.53
N13650 X-11.897 Y-8.739
N13655 Y-9.425
N13660 G3 X-11.527 Y-9.706 I0.3 J0.01
N13665 G1 X-11.28 Y-9.646
N13670 X-10.576 Y-9.476
N13675 X-10.192 Y-9.384
N13680 G3 X-9.962 Y-9.102 I-0.07 J0.292
N13685 G1 Y-8.446
N13690 X-9.97 Y-8.297
N13695 X-10.005 Y-8.151
N13700 X-10.065 Y-8.013
N13705 X-10.145 Y-7.886
N13710 X-10.24 Y-7.77
N13715 X-10.349 Y-7.667
N13720 X-10.469 Y-7.577
N13725 X-10.599 Y-7.502
N13730 X-10.736 Y-7.441
N13735 X-10.879 Y-7.396
N13740 X-11.026 Y-7.368
N13745 X-11.176 Y-7.355
N13750 X-11.215 Y-7.356
N13755 X-11.427 Y-7.395
N13760 X-11.617 Y-7.496
N13765 X-11.767 Y-7.65
N13770 X-11.864 Y-7.843
N13775 X-11.897 Y-8.056
N13780 Y-8.739
N13785 G3 X-11.533 Y-9.022 I0.3 J0.01
N13790 G1 X-11.279 Y-8.966
N13795 X-10.578 Y-8.812
N13800 X-10.198 Y-8.729
N13805 G3 X-9.962 Y-8.446 I-0.064 J0.293
N13810 G1 Y-7.741
N13815 X-9.97 Y-7.591
N13820 X-10.01 Y-7.446
N13825 X-10.073 Y-7.31
N13830 X-10.155 Y-7.185
N13835 X-10.253 Y-7.071
N13840 X-10.364 Y-6.97
N13845 X-10.485 Y-6.882
N13850 X-10.616 Y-6.809
N13855 X-10.754 Y-6.75
N13860 X-10.898 Y-6.707
N13865 X-11.046 Y-6.681
N13870 X-11.195 Y-6.67
N13875 X-11.227 Y-6.672
N13880 X-11.436 Y-6.713
N13885 X-11.623 Y-6.816
N13890 X-11.77 Y-6.969
N13895 X-11.864 Y-7.16
N13900 X-11.897 Y-7.371
N13905 Y-8.056
N13910 G3 X-11.528 Y-8.337 I0.3 J0.01
N13915 G1 X-11.28 Y-8.279
N13920 X-10.577 Y-8.113
N13925 X-10.193 Y-8.022
N13930 G3 X-9.962 Y-7.741 I-0.069 J0.292
N13935 G1 Y-7.085
N13940 X-9.97 Y-6.935
N13945 X-10.004 Y-6.789
N13950 X-10.063 Y-6.651
N13955 X-10.141 Y-6.523
N13960 X-10.236 Y-6.407
N13965 X-10.345 Y-6.303
N13970 X-10.464 Y-6.213
N13975 X-10.594 Y-6.137
N13980 X-10.731 Y-6.075
N13985 X-10.873 Y-6.029
N13990 X-11.021 Y-6.001
N13995 X-11.17 Y-5.987
N14000 X-11.212 Y-5.988
N14005 X-11.424 Y-6.026
N14010 X-11.615 Y-6.127
N14015 X-11.767 Y-6.281
N14020 X-11.863 Y-6.474
N14025 X-11.897 Y-6.688
N14030 Y-7.371
N14035 G3 X-11.534 Y-7.654 I0.3 J0.01
N14040 G1 X-11.279 Y-7.599
N14045 X-10.579 Y-7.449
N14050 X-10.199 Y-7.368
N14055 G3 X-9.962 Y-7.085 I-0.063 J0.293
N14060 G1 Y-6.388
N14065 X-9.97 Y-6.238
N14070 X-10.007 Y-6.093
N14075 X-10.068 Y-5.956
N14080 X-10.148 Y-5.829
N14085 X-10.244 Y-5.714
N14090 X-10.354 Y-5.611
N14095 X-10.474 Y-5.522
N14100 X-10.605 Y-5.448
N14105 X-10.742 Y-5.387
N14110 X-10.885 Y-5.343
N14115 X-11.033 Y-5.315
N14120 X-11.182 Y-5.303
N14125 X-11.22 Y-5.304
N14130 X-11.43 Y-5.344
N14135 X-11.619 Y-5.446
N14140 X-11.768 Y-5.6
N14145 X-11.864 Y-5.792
N14150 X-11.897 Y-6.004
N14155 Y-6.688
N14160 G3 X-11.531 Y-6.97 I0.3 J0.01
N14165 G1 X-11.279 Y-6.913
N14170 X-10.578 Y-6.756
N14175 X-10.196 Y-6.67
N14180 G3 X-9.962 Y-6.388 I-0.066 J0.293
N14185 G1 Y-5.691
N14190 X-9.97 Y-5.542
N14195 X-10.009 Y-5.397
N14200 X-10.072 Y-5.261
N14205 X-10.154 Y-5.135
N14210 X-10.252 Y-5.021
N14215 X-10.362 Y-4.919
N14220 X-10.483 Y-4.831
N14225 X-10.614 Y-4.758
N14230 X-10.752 Y-4.699
N14235 X-10.896 Y-4.656
N14240 X-11.044 Y-4.63
N14245 X-11.193 Y-4.619
N14250 X-11.226 Y-4.62
N14255 X-11.435 Y-4.661
N14260 X-11.622 Y-4.763
N14265 X-11.77 Y-4.917
N14270 X-11.864 Y-5.109
N14275 X-11.897 Y-5.319
N14280 Y-6.004
N14285 G3 X-11.529 Y-6.286 I0.3 J0.01
N14290 G1 X-11.28 Y-6.227
N14295 X-10.577 Y-6.063
N14300 X-10.194 Y-5.973
N14305 G3 X-9.962 Y-5.691 I-0.068 J0.292
N14310 G1 Y-5.002
N14315 X-9.97 Y-4.852
N14320 X-10.01 Y-4.708
N14325 X-10.074 Y-4.572
N14330 X-10.156 Y-4.447
N14335 X-10.254 Y-4.333
N14340 X-10.365 Y-4.232
N14345 X-10.487 Y-4.144
N14350 X-10.618 Y-4.072
N14355 X-10.756 Y-4.013
N14360 X-10.9 Y-3.97
N14365 X-11.047 Y-3.944
N14370 X-11.197 Y-3.934
N14375 X-11.227 Y-3.935
N14380 X-11.436 Y-3.977
N14385 X-11.623 Y-4.079
N14390 X-11.77 Y-4.233
N14395 X-11.864 Y-4.424
N14400 X-11.897 Y-4.634
N14405 Y-5.319
N14410 G3 X-11.528 Y-5.601 I0.3 J0.01
N14415 G1 X-11.28 Y-5.542
N14420 X-10.577 Y-5.375
N14425 X-10.193 Y-5.284
N14430 G3 X-9.962 Y-5.002 I-0.069 J0.292
N14435 G1 Y-4.346
N14440 X-9.97 Y-4.196
N14445 X-10.004 Y-4.05
N14450 X-10.064 Y-3.913
N14455 X-10.142 Y-3.785
N14460 X-10.237 Y-3.669
N14465 X-10.346 Y-3.565
N14470 X-10.466 Y-3.475
N14475 X-10.595 Y-3.4
N14480 X-10.732 Y-3.338
N14485 X-10.875 Y-3.292
N14490 X-11.022 Y-3.264
N14495 X-11.172 Y-3.25
N14500 X-11.213 Y-3.251
N14505 X-11.425 Y-3.289
N14510 X-11.616 Y-3.391
N14515 X-11.767 Y-3.545
N14520 X-11.864 Y-3.738
N14525 X-11.897 Y-3.951
N14530 Y-4.634
N14535 G3 X-11.534 Y-4.917 I0.3 J0.01
N14540 G1 X-11.279 Y-4.862
N14545 X-10.578 Y-4.711
N14550 X-10.199 Y-4.629
N14555 G3 X-9.962 Y-4.346 I-0.063 J0.293
N14560 G1 Y-3.641
N14565 X-9.97 Y-3.491
N14570 X-10.009 Y-3.346
N14575 X-10.072 Y-3.21
N14580 X-10.153 Y-3.084
N14585 X-10.251 Y-2.97
N14590 X-10.361 Y-2.868
N14595 X-10.482 Y-2.779
N14600 X-10.613 Y-2.706
N14605 X-10.751 Y-2.647
N14610 X-10.894 Y-2.604
N14615 X-11.042 Y-2.577
N14620 X-11.192 Y-2.566
N14625 X-11.225 Y-2.567
N14630 X-11.434 Y-2.608
N14635 X-11.622 Y-2.711
N14640 X-11.77 Y-2.864
N14645 X-11.864 Y-3.056
N14650 X-11.897 Y-3.267
N14655 Y-3.951
N14660 G3 X-11.529 Y-4.233 I0.3 J0.01
N14665 G1 X-11.28 Y-4.175
N14670 X-10.577 Y-4.011
N14675 X-10.194 Y-3.922
N14680 G3 X-9.962 Y-3.641 I-0.068 J0.292
N14685 G1 Y-2.944
N14690 X-9.97 Y-2.794
N14695 X-10.011 Y-2.65
N14700 X-10.076 Y-2.515
N14705 X-10.159 Y-2.39
N14710 X-10.258 Y-2.277
N14715 X-10.369 Y-2.176
N14720 X-10.491 Y-2.088
N14725 X-10.622 Y-2.016
N14730 X-10.76 Y-1.958
N14735 X-10.904 Y-1.916
N14740 X-11.052 Y-1.891
N14745 X-11.202 Y-1.881
N14750 X-11.23 Y-1.882
N14755 X-11.438 Y-1.924
N14760 X-11.624 Y-2.027
N14765 X-11.771 Y-2.181
N14770 X-11.865 Y-2.372
N14775 X-11.897 Y-2.581
N14780 Y-3.267
N14785 G3 X-11.526 Y-3.548 I0.3 J0.01
N14790 G1 X-11.28 Y-3.488
N14795 X-10.576 Y-3.318
N14800 X-10.192 Y-3.225
N14805 G3 X-9.962 Y-2.944 I-0.071 J0.292
N14810 G1 Y-2.288
N14815 X-9.97 Y-2.138
N14820 X-10.005 Y-1.992
N14825 X-10.065 Y-1.855
N14830 X-10.145 Y-1.728
N14835 X-10.241 Y-1.612
N14840 X-10.349 Y-1.509
N14845 X-10.469 Y-1.419
N14850 X-10.599 Y-1.344
N14855 X-10.737 Y-1.283
N14860 X-10.88 Y-1.238
N14865 X-11.027 Y-1.21
N14870 X-11.176 Y-1.197
N14875 X-11.215 Y-1.198
N14880 X-11.427 Y-1.237
N14885 X-11.617 Y-1.338
N14890 X-11.767 Y-1.492
N14895 X-11.864 Y-1.685
N14900 X-11.897 Y-1.898
N14905 Y-2.581
N14910 G3 X-11.533 Y-2.864 I0.3 J0.01
N14915 G1 X-11.279 Y-2.808
N14920 X-10.578 Y-2.654
N14925 X-10.198 Y-2.57
N14930 G3 X-9.962 Y-2.288 I-0.064 J0.293
N14935 G1 Y-1.591
N14940 X-9.97 Y-1.441
N14945 X-10.008 Y-1.296
N14950 X-10.07 Y-1.16
N14955 X-10.151 Y-1.034
N14960 X-10.248 Y-0.919
N14965 X-10.358 Y-0.817
N14970 X-10.479 Y-0.728
N14975 X-10.61 Y-0.655
N14980 X-10.747 Y-0.595
N14985 X-10.891 Y-0.551
N14990 X-11.038 Y-0.524
N14995 X-11.188 Y-0.513
N15000 X-11.223 Y-0.514
N15005 X-11.433 Y-0.555
N15010 X-11.621 Y-0.657
N15015 X-11.769 Y-0.811
N15020 X-11.864 Y-1.002
N15025 X-11.897 Y-1.214
N15030 Y-1.898
N15035 G3 X-11.53 Y-2.18 I0.3 J0.01
N15040 G1 X-11.279 Y-2.122
N15045 X-10.577 Y-1.961
N15050 X-10.195 Y-1.873
N15055 G3 X-9.962 Y-1.591 I-0.067 J0.292
N15060 G1 Y-0.902
N15065 X-9.97 Y-0.752
N15070 X-10.009 Y-0.607
N15075 X-10.072 Y-0.471
N15080 X-10.154 Y-0.346
N15085 X-10.251 Y-0.231
N15090 X-10.361 Y-0.13
N15095 X-10.483 Y-0.041
N15100 X-10.614 Y0.032
N15105 X-10.751 Y0.091
N15110 X-10.895 Y0.134
N15115 X-11.043 Y0.161
N15120 X-11.192 Y0.172
N15125 X-11.225 Y0.17
N15130 X-11.434 Y0.129
N15135 X-11.622 Y0.027
N15140 X-11.77 Y-0.127
N15145 X-11.864 Y-0.318
N15150 X-11.897 Y-0.529
N15155 Y-1.214
N15160 G3 X-11.529 Y-1.495 I0.3 J0.01
N15165 G1 X-11.28 Y-1.437
N15170 X-10.577 Y-1.273
N15175 X-10.194 Y-1.184
N15180 G3 X-9.962 Y-0.902 I-0.068 J0.292
N15185 G1 Y-0.246
N15190 X-9.97 Y-0.096
N15195 X-10.003 Y0.05
N15200 X-10.062 Y0.188
N15205 X-10.14 Y0.316
N15210 X-10.234 Y0.433
N15215 X-10.343 Y0.537
N15220 X-10.462 Y0.628
N15225 X-10.591 Y0.703
N15230 X-10.728 Y0.765
N15235 X-10.87 Y0.812
N15240 X-11.018 Y0.841
N15245 X-11.167 Y0.855
N15250 X-11.21 Y0.854
N15255 X-11.423 Y0.816
N15260 X-11.615 Y0.716
N15265 X-11.766 Y0.561
N15270 X-11.863 Y0.368
N15275 X-11.897 Y0.154
N15280 Y-0.529
N15285 G3 X-11.535 Y-0.812 I0.3 J0.01
N15290 G1 X-11.279 Y-0.758
N15295 X-10.579 Y-0.609
N15300 X-10.2 Y-0.529
N15305 G3 X-9.962 Y-0.246 I-0.062 J0.293
N15310 G1 Y0.46
N15315 X-9.97 Y0.609
N15320 X-10.008 Y0.754
N15325 X-10.07 Y0.891
N15330 X-10.151 Y1.017
N15335 X-10.248 Y1.132
N15340 X-10.358 Y1.234
N15345 X-10.478 Y1.323
N15350 X-10.609 Y1.397
N15355 X-10.747 Y1.456
N15360 X-10.89 Y1.5
N15365 X-11.038 Y1.527
N15370 X-11.187 Y1.539
N15375 X-11.223 Y1.538
N15380 X-11.433 Y1.497
N15385 X-11.621 Y1.395
N15390 X-11.769 Y1.241
N15395 X-11.864 Y1.049
N15400 X-11.897 Y0.838
N15405 Y0.154
N15410 G3 X-11.53 Y-0.128 I0.3 J0.01
N15415 G1 X-11.279 Y-0.071
N15420 X-10.577 Y0.09
N15425 X-10.195 Y0.178
N15430 G3 X-9.962 Y0.46 I-0.067 J0.292
N15435 G1 Y1.156
N15440 X-9.97 Y1.306
N15445 X-10.01 Y1.45
N15450 X-10.074 Y1.586
N15455 X-10.157 Y1.711
N15460 X-10.255 Y1.825
N15465 X-10.366 Y1.926
N15470 X-10.487 Y2.014
N15475 X-10.619 Y2.086
N15480 X-10.757 Y2.145
N15485 X-10.901 Y2.188
N15490 X-11.048 Y2.213
N15495 X-11.198 Y2.224
N15500 X-11.228 Y2.222
N15505 X-11.437 Y2.181
N15510 X-11.623 Y2.078
N15515 X-11.77 Y1.924
N15520 X-11.864 Y1.733
N15525 X-11.897 Y1.523
N15530 Y0.838
N15535 G3 X-11.527 Y0.557 I0.3 J0.01
N15540 G1 X-11.28 Y0.616
N15545 X-10.577 Y0.783
N15550 X-10.193 Y0.875
N15555 G3 X-9.962 Y1.156 I-0.07 J0.292
N15560 G1 Y1.812
N15565 X-9.97 Y1.962
N15570 X-10.005 Y2.108
N15575 X-10.064 Y2.246
N15580 X-10.143 Y2.373
N15585 X-10.238 Y2.489
N15590 X-10.347 Y2.593
N15595 X-10.466 Y2.683
N15600 X-10.596 Y2.758
N15605 X-10.733 Y2.82
N15610 X-10.876 Y2.865
N15615 X-11.023 Y2.894
N15620 X-11.172 Y2.907
N15625 X-11.213 Y2.906
N15630 X-11.425 Y2.868
N15635 X-11.616 Y2.767
N15640 X-11.767 Y2.613
N15645 X-11.864 Y2.42
N15650 X-11.897 Y2.206
N15655 Y1.523
N15660 G3 X-11.533 Y1.24 I0.3 J0.01
N15665 G1 X-11.279 Y1.296
N15670 X-10.578 Y1.447
N15675 X-10.199 Y1.53
N15680 G3 X-9.962 Y1.812 I-0.064 J0.293
N15685 G1 Y2.509
N15690 X-9.97 Y2.659
N15695 X-10.007 Y2.804
N15700 X-10.069 Y2.941
N15705 X-10.15 Y3.067
N15710 X-10.246 Y3.182
N15715 X-10.355 Y3.285
N15720 X-10.476 Y3.374
N15725 X-10.607 Y3.448
N15730 X-10.744 Y3.508
N15735 X-10.887 Y3.552
N15740 X-11.035 Y3.579
N15745 X-11.184 Y3.591
N15750 X-11.221 Y3.59
N15755 X-11.431 Y3.55
N15760 X-11.62 Y3.448
N15765 X-11.769 Y3.294
N15770 X-11.864 Y3.102
N15775 X-11.897 Y2.89
N15780 Y2.206
N15785 G3 X-11.531 Y1.924 I0.3 J0.01
N15790 G1 X-11.279 Y1.981
N15795 X-10.578 Y2.14
N15800 X-10.196 Y2.227
N15805 G3 X-9.962 Y2.509 I-0.066 J0.293
N15810 G1 Y3.198
N15815 X-9.97 Y3.348
N15820 X-10.008 Y3.493
N15825 X-10.071 Y3.629
N15830 X-10.152 Y3.755
N15835 X-10.249 Y3.87
N15840 X-10.359 Y3.972
N15845 X-10.48 Y4.061
N15850 X-10.611 Y4.134
N15855 X-10.748 Y4.194
N15860 X-10.892 Y4.237
N15865 X-11.039 Y4.264
N15870 X-11.189 Y4.275
N15875 X-11.223 Y4.274
N15880 X-11.433 Y4.234
N15885 X-11.621 Y4.132
N15890 X-11.769 Y3.978
N15895 X-11.864 Y3.786
N15900 X-11.897 Y3.575
N15905 Y2.89
N15910 G3 X-11.53 Y2.609 I0.3 J0.01
N15915 G1 X-11.28 Y2.666
N15920 X-10.577 Y2.828
N15925 X-10.195 Y2.916
N15930 G3 X-9.962 Y3.198 I-0.067 J0.292
N15935 G1 Y3.854
N15940 X-9.97 Y4.004
N15945 X-10.003 Y4.15
N15950 X-10.06 Y4.289
N15955 X-10.138 Y4.417
N15960 X-10.232 Y4.534
N15965 X-10.34 Y4.638
N15970 X-10.459 Y4.729
N15975 X-10.588 Y4.806
N15980 X-10.725 Y4.868
N15985 X-10.867 Y4.915
N15990 X-11.014 Y4.944
N15995 X-11.164 Y4.958
N16000 X-11.208 Y4.957
N16005 X-11.422 Y4.92
N16010 X-11.614 Y4.82
N16015 X-11.766 Y4.665
N16020 X-11.863 Y4.472
N16025 X-11.897 Y4.258
N16030 Y3.575
N16035 G3 X-11.536 Y3.292 I0.3 J0.01
N16040 G1 X-11.278 Y3.345
N16045 X-10.579 Y3.492
N16050 X-10.201 Y3.571
N16055 G3 X-9.962 Y3.854 I-0.061 J0.294
N16060 G1 Y4.56
N16065 X-9.97 Y4.71
N16070 X-10.007 Y4.855
N16075 X-10.069 Y4.992
N16080 X-10.149 Y5.118
N16085 X-10.246 Y5.233
N16090 X-10.355 Y5.336
N16095 X-10.476 Y5.425
N16100 X-10.606 Y5.499
N16105 X-10.744 Y5.559
N16110 X-10.887 Y5.603
N16115 X-11.035 Y5.63
N16120 X-11.184 Y5.642
N16125 X-11.221 Y5.641
N16130 X-11.431 Y5.601
N16135 X-11.62 Y5.499
N16140 X-11.769 Y5.345
N16145 X-11.864 Y5.153
N16150 X-11.897 Y4.941
N16155 Y4.258
N16160 G3 X-11.531 Y3.975 I0.3 J0.01
N16165 G1 X-11.279 Y4.032
N16170 X-10.578 Y4.191
N16175 X-10.196 Y4.278
N16180 G3 X-9.962 Y4.56 I-0.066 J0.293
N16185 G1 Y5.256
N16190 X-9.97 Y5.406
N16195 X-10.01 Y5.551
N16200 X-10.073 Y5.687
N16205 X-10.155 Y5.812
N16210 X-10.253 Y5.926
N16215 X-10.364 Y6.028
N16220 X-10.485 Y6.116
N16225 X-10.616 Y6.188
N16230 X-10.754 Y6.247
N16235 X-10.898 Y6.29
N16240 X-11.046 Y6.316
N16245 X-11.195 Y6.327
N16250 X-11.227 Y6.326
N16255 X-11.436 Y6.284
N16260 X-11.623 Y6.182
N16265 X-11.77 Y6.028
N16270 X-11.864 Y5.837
N16275 X-11.897 Y5.626
N16280 Y4.941
N16285 G3 X-11.528 Y4.66 I0.3 J0.01
N16290 G1 X-11.28 Y4.719
N16295 X-10.577 Y4.884
N16300 X-10.193 Y4.975
N16305 G3 X-9.962 Y5.256 I-0.069 J0.292
N16310 G1 Y5.912
N16315 X-9.97 Y6.062
N16320 X-10.004 Y6.208
N16325 X-10.063 Y6.346
N16330 X-10.141 Y6.474
N16335 X-10.236 Y6.59
N16340 X-10.345 Y6.694
N16345 X-10.464 Y6.785
N16350 X-10.594 Y6.86
N16355 X-10.73 Y6.922
N16360 X-10.873 Y6.968
N16365 X-11.02 Y6.997
N16370 X-11.17 Y7.01
N16375 X-11.212 Y7.009
N16380 X-11.424 Y6.971
N16385 X-11.615 Y6.87
N16390 X-11.767 Y6.716
N16395 X-11.863 Y6.523
N16400 X-11.897 Y6.309
N16405 Y5.626
N16410 G3 X-11.534 Y5.343 I0.3 J0.01
N16415 G1 X-11.279 Y5.398
N16420 X-10.579 Y5.548
N16425 X-10.199 Y5.63
N16430 G3 X-9.962 Y5.912 I-0.063 J0.293
N16435 G1 Y6.609
N16440 X-9.97 Y6.759
N16445 X-10.007 Y6.904
N16450 X-10.068 Y7.041
N16455 X-10.148 Y7.168
N16460 X-10.244 Y7.283
N16465 X-10.354 Y7.386
N16470 X-10.474 Y7.475
N16475 X-10.604 Y7.549
N16480 X-10.742 Y7.61
N16485 X-10.885 Y7.654
N16490 X-11.032 Y7.682
N16495 X-11.182 Y7.694
N16500 X-11.219 Y7.693
N16505 X-11.43 Y7.653
N16510 X-11.619 Y7.551
N16515 X-11.768 Y7.397
N16520 X-11.864 Y7.205
N16525 X-11.897 Y6.993
N16530 Y6.309
N16535 G3 X-11.531 Y6.027 I0.3 J0.01
N16540 G1 X-11.279 Y6.084
N16545 X-10.578 Y6.241
N16550 X-10.196 Y6.327
N16555 G3 X-9.962 Y6.609 I-0.066 J0.293
N16560 G1 Y7.298
N16565 X-9.97 Y7.448
N16570 X-10.008 Y7.593
N16575 X-10.07 Y7.73
N16580 X-10.151 Y7.856
N16585 X-10.247 Y7.971
N16590 X-10.357 Y8.073
N16595 X-10.478 Y8.162
N16600 X-10.609 Y8.236
N16605 X-10.746 Y8.296
N16610 X-10.89 Y8.34
N16615 X-11.037 Y8.366
N16620 X-11.187 Y8.378
N16625 X-11.222 Y8.377
N16630 X-11.432 Y8.337
N16635 X-11.62 Y8.235
N16640 X-11.769 Y8.081
N16645 X-11.864 Y7.889
N16650 X-11.897 Y7.677
N16655 Y6.993
N16660 G3 X-11.53 Y6.711 I0.3 J0.01
N16665 G1 X-11.279 Y6.769
N16670 X-10.577 Y6.929
N16675 X-10.195 Y7.016
N16680 G3 X-9.962 Y7.298 I-0.067 J0.292
N16685 G1 Y7.954
N16690 X-9.97 Y8.104
N16695 X-10.002 Y8.251
N16700 X-10.059 Y8.389
N16705 X-10.137 Y8.518
N16710 X-10.231 Y8.635
N16715 X-10.338 Y8.739
N16720 X-10.457 Y8.831
N16725 X-10.586 Y8.907
N16730 X-10.723 Y8.97
N16735 X-10.865 Y9.017
N16740 X-11.012 Y9.046
N16745 X-11.162 Y9.061
N16750 X-11.207 Y9.06
N16755 X-11.421 Y9.023
N16760 X-11.613 Y8.923
N16765 X-11.766 Y8.768
N16770 X-11.863 Y8.575
N16775 X-11.897 Y8.36
N16780 Y7.677
N16785 G3 X-11.536 Y7.394 I0.3 J0.01
N16790 G1 X-11.278 Y7.448
N16795 X-10.579 Y7.593
N16800 X-10.201 Y7.671
N16805 G3 X-9.962 Y7.954 I-0.061 J0.294
N16810 G1 Y8.66
N16815 X-9.97 Y8.81
N16820 X-10.007 Y8.955
N16825 X-10.068 Y9.092
N16830 X-10.148 Y9.219
N16835 X-10.245 Y9.334
N16840 X-10.354 Y9.437
N16845 X-10.474 Y9.526
N16850 X-10.605 Y9.6
N16855 X-10.742 Y9.661
N16860 X-10.885 Y9.705
N16865 X-11.033 Y9.733
N16870 X-11.182 Y9.745
N16875 X-11.22 Y9.744
N16880 X-11.431 Y9.704
N16885 X-11.619 Y9.602
N16890 X-11.769 Y9.448
N16895 X-11.864 Y9.256
N16900 X-11.897 Y9.044
N16905 Y8.36
N16910 G3 X-11.531 Y8.078 I0.3 J0.01
N16915 G1 X-11.279 Y8.135
N16920 X-10.578 Y8.292
N16925 X-10.196 Y8.378
N16930 G3 X-9.962 Y8.66 I-0.066 J0.293
N16935 G1 Y9.357
N16940 X-9.97 Y9.506
N16945 X-10.009 Y9.651
N16950 X-10.072 Y9.787
N16955 X-10.154 Y9.913
N16960 X-10.252 Y10.027
N16965 X-10.362 Y10.129
N16970 X-10.483 Y10.217
N16975 X-10.614 Y10.29
N16980 X-10.752 Y10.349
N16985 X-10.896 Y10.392
N16990 X-11.044 Y10.418
N16995 X-11.193 Y10.429
N17000 X-11.226 Y10.428
N17005 X-11.435 Y10.387
N17010 X-11.622 Y10.285
N17015 X-11.77 Y10.131
N17020 X-11.864 Y9.939
N17025 X-11.897 Y9.729
N17030 Y9.044
N17035 G3 X-11.529 Y8.762 I0.3 J0.01
N17040 G1 X-11.28 Y8.821
N17045 X-10.577 Y8.985
N17050 X-10.194 Y9.075
N17055 G3 X-9.962 Y9.357 I-0.068 J0.292
N17060 G1 Y10.013
N17065 X-9.97 Y10.162
N17070 X-10.004 Y10.309
N17075 X-10.062 Y10.447
N17080 X-10.14 Y10.575
N17085 X-10.235 Y10.691
N17090 X-10.343 Y10.795
N17095 X-10.463 Y10.886
N17100 X-10.592 Y10.962
N17105 X-10.729 Y11.023
N17110 X-10.871 Y11.07
N17115 X-11.019 Y11.099
N17120 X-11.168 Y11.112
N17125 X-11.211
N17130 X-11.424 Y11.074
N17135 X-11.615 Y10.973
N17140 X-11.766 Y10.819
N17145 X-11.863 Y10.625
N17150 X-11.897 Y10.412
N17155 Y9.729
N17160 G3 X-11.535 Y9.446 I0.3 J0.01
N17165 G1 X-11.279 Y9.5
N17170 X-10.579 Y9.649
N17175 X-10.2 Y9.73
N17180 G3 X-9.962 Y10.013 I-0.062 J0.293
N17185 G1 Y10.709
N17190 X-9.97 Y10.859
N17195 X-10.007 Y11.005
N17200 X-10.067 Y11.142
N17205 X-10.147 Y11.269
N17210 X-10.243 Y11.384
N17215 X-10.352 Y11.487
N17220 X-10.473 Y11.576
N17225 X-10.603 Y11.651
N17230 X-10.74 Y11.711
N17235 X-10.883 Y11.756
N17240 X-11.031 Y11.784
N17245 X-11.18 Y11.796
N17250 X-11.218 Y11.795
N17255 X-11.43 Y11.756
N17260 X-11.619 Y11.654
N17265 X-11.768 Y11.5
N17270 X-11.864 Y11.308
N17275 X-11.897 Y11.095
N17280 Y10.412
N17285 G3 X-11.532 Y10.129 I0.3 J0.01
N17290 G1 X-11.279 Y10.186
N17295 X-10.578 Y10.342
N17300 X-10.197 Y10.427
N17305 G3 X-9.962 Y10.709 I-0.065 J0.293
N17310 G1 Y11.399
N17315 X-9.97 Y11.548
N17320 X-10.008 Y11.694
N17325 X-10.069 Y11.83
N17330 X-10.15 Y11.957
N17335 X-10.246 Y12.072
N17340 X-10.356 Y12.174
N17345 X-10.477 Y12.263
N17350 X-10.607 Y12.337
N17355 X-10.745 Y12.397
N17360 X-10.888 Y12.441
N17365 X-11.036 Y12.468
N17370 X-11.185 Y12.48
N17375 X-11.221 Y12.479
N17380 X-11.431 Y12.439
N17385 X-11.62 Y12.337
N17390 X-11.769 Y12.183
N17395 X-11.864 Y11.991
N17400 X-11.897 Y11.779
N17405 Y11.095
N17410 G3 X-11.531 Y10.813 I0.3 J0.01
N17415 G1 X-11.279 Y10.87
N17420 X-10.578 Y11.03
N17425 X-10.196 Y11.116
N17430 G3 X-9.962 Y11.399 I-0.066 J0.293
N17435 G1 Y12.055
N17440 X-9.97 Y12.204
N17445 X-10.002 Y12.351
N17450 X-10.059 Y12.49
N17455 X-10.09 Y12.667
N17460 X-10.075 Y12.847
N17465 X-9.988 Y13.094
N17470 X-9.969 Y13.185
N17475 X-9.962 Y13.278
N17480 G3 X-10.562 Y13.27 I-0.3 J-0.008
N17485 G1 Y12.065
N17490 G3 X-9.962 Y12.055 I0.3 J0.
N17495 G1 Y13.203
N17500 X-9.961 Y13.367
N17505 X-9.956 Y13.695
N17510 X-9.947 Y13.859
N17515 X-9.923 Y14.023
N17520 X-9.881 Y14.187
N17525 X-9.839 Y14.325
N17530 X-9.829 Y14.351
N17535 X-9.756 Y14.515
N17540 X-9.675 Y14.664
N17545 X-9.666 Y14.679
N17550 X-9.554 Y14.843
N17555 X-9.511 Y14.9
N17560 X-9.414 Y15.007
N17565 X-9.347 Y15.078
N17570 X-9.209 Y15.198
N17575 X-9.183 Y15.22
N17580 X-9.017 Y15.335
N17585 X-8.855 Y15.425
N17590 X-8.814 Y15.442
N17595 G3 X-8.931 Y16.014 I-0.128 J0.272
N17600 G1 X-13.341 Y16.168
N17605 G3 X-13.446 Y15.584 I-0.011 J-0.3
N17610 G1 X-13.282 Y15.535
N17615 X-13.174 Y15.499
N17620 X-12.954 Y15.398
N17625 X-12.79 Y15.293
N17630 X-12.626 Y15.177
N17635 X-12.462 Y15.027
N17640 X-12.444 Y15.007
N17645 X-12.305 Y14.843
N17650 X-12.195 Y14.679
N17655 X-12.134 Y14.575
N17660 X-12.101 Y14.515
N17665 X-12.032 Y14.351
N17670 X-11.978 Y14.187
N17675 X-11.936 Y14.023
N17680 X-11.912 Y13.859
N17685 X-11.903 Y13.695
N17690 X-11.898 Y13.367
N17695 X-11.897 Y13.203
N17700 Y11.779
N17705 G0 Z5.
N17710 G1 X-4.815 Y16.214 F5000.
N17715 G0 Z-4.974
N17720 G1 Z-5.274 F1000.
N17725 X-4.81 Y16.208 Z-5.341
N17730 X-4.794 Y16.192 Z-5.404
N17735 X-4.769 Y16.167 Z-5.461
N17740 X-4.736 Y16.133 Z-5.509
N17745 X-4.697 Y16.092 Z-5.544
N17750 X-4.652 Y16.047 Z-5.566
N17755 X-4.606 Y15.999 Z-5.574
N17760 G3 X-3.936 Y15.589 I1.134 J1.104
N17765 G1 X-3.772 Y15.545
N17770 X-3.63 Y15.499
N17775 X-3.444 Y15.415
N17780 X-3.308 Y15.335
N17785 X-3.198 Y15.266
N17790 X-3.157 Y15.239
N17795 X-3.116 Y15.204
N17800 X-3.009 Y15.106
N17805 X-2.884 Y15.002
N17810 X-2.754 Y14.911
N17815 X-2.587 Y14.813
N17820 X-2.377 Y14.711
N17825 X-2.1 Y14.603
N17830 X-1.728 Y14.492
N17835 X-1.189 Y14.376
N17840 X-0.473 Y14.283
N17845 X0.247 Y14.235
N17850 X0.969 Y14.21
N17855 X1.69 Y14.198
N17860 X2.412 Y14.191
N17865 X3.134 Y14.188
N17870 X4.578 Y14.185
N17875 X7.432
N17880 X7.614 Y14.209
N17885 X7.783 Y14.279
N17890 X7.929 Y14.391
N17895 X8.04 Y14.537
N17900 X8.121 Y14.679
N17905 X8.199 Y14.796
N17910 X8.235 Y14.843
N17915 X8.363 Y14.999
N17920 X8.549 Y15.171
N17925 X8.62 Y15.234
N17930 X8.8 Y15.35
N17935 X8.855 Y15.384
N17940 X8.999 Y15.453
N17945 G3 X8.874 Y16.019 I-0.139 J0.266
N17950 G1 X8.807 Y16.022 Z-5.566
N17955 X8.744 Y16.025 Z-5.544
N17960 X8.687 Y16.027 Z-5.509
N17965 X8.639 Y16.029 Z-5.461
N17970 X8.604 Y16.031 Z-5.404
N17975 X8.581 Y16.032 Z-5.341
N17980 X8.574 Z-5.274
N17985 G0 Z5.
N17990 G1 X-3.501 Y16.066 F5000.
N17995 G0 Z-4.974
N18000 G1 Z-5.274 F1000.
N18005 X-3.498 Y16.059 Z-5.341
N18010 X-3.492 Y16.038 Z-5.404
N18015 X-3.482 Y16.004 Z-5.461
N18020 X-3.468 Y15.958 Z-5.509
N18025 X-3.452 Y15.904 Z-5.544
N18030 X-3.433 Y15.843 Z-5.566
N18035 X-3.414 Y15.779 Z-5.574
N18040 G3 X-3.009 Y15.106 I1.516 J0.455
N18045 G1 X-2.9 Y15.007
N18050 X-2.788 Y14.871
N18055 X-2.765 Y14.843
N18060 X-2.651 Y14.679
N18065 X-2.558 Y14.515
N18070 X-2.546 Y14.487
N18075 X-2.482 Y14.352
N18080 X-2.394 Y14.23
N18085 X-2.293 Y14.119
N18090 X-2.184 Y14.016
N18095 X-2.044 Y13.905
N18100 X-1.861 Y13.782
N18105 X-1.646 Y13.662
N18110 X-1.38 Y13.54
N18115 X-1.029 Y13.412
N18120 X-0.57 Y13.285
N18125 X0.096 Y13.158
N18130 X0.813 Y13.08
N18135 X1.534 Y13.037
N18140 X2.256 Y13.013
N18145 X2.978 Y13.
N18150 X3.7 Y12.993
N18155 X4.422 Y12.989
N18160 X5.866 Y12.986
N18165 X6.588 Y12.985
N18170 X6.926 Y13.007
N18175 X7.187 Y13.045
N18180 X7.287 Y13.068
N18185 X7.495 Y13.153
N18190 X7.665 Y13.299
N18195 X7.781 Y13.491
N18200 X7.83 Y13.71
N18205 X7.838 Y13.859
N18210 G3 X7.282 Y14.021 I-0.3 J0.007
N18215 G1 X7.247 Y13.964 Z-5.566
N18220 X7.214 Y13.91 Z-5.544
N18225 X7.185 Y13.862 Z-5.509
N18230 X7.16 Y13.821 Z-5.461
N18235 X7.141 Y13.79 Z-5.404
N18240 X7.13 Y13.771 Z-5.341
N18245 X7.126 Y13.765 Z-5.274
N18250 G0 Z5.
N18255 G1 X-2.588 Y15.565 F5000.
N18260 G0 Z-4.974
N18265 G1 Z-5.274 F1000.
N18270 X-2.589 Y15.558 Z-5.341
N18275 X-2.592 Y15.536 Z-5.404
N18280 X-2.597 Y15.5 Z-5.461
N18285 X-2.604 Y15.453 Z-5.509
N18290 X-2.612 Y15.397 Z-5.544
N18295 X-2.621 Y15.334 Z-5.566
N18300 X-2.63 Y15.268 Z-5.574
N18305 G3 X-2.546 Y14.487 I1.566 J-0.226
N18310 G1 X-2.46 Y14.278
N18315 X-2.435 Y14.187
N18320 X-2.392 Y14.023
N18325 X-2.369 Y13.859
N18330 X-2.347 Y13.71
N18335 X-2.295 Y13.57
N18340 X-2.226 Y13.436
N18345 X-2.143 Y13.312
N18350 X-2.049 Y13.194
N18355 X-1.928 Y13.066
N18360 X-1.782 Y12.934
N18365 X-1.609 Y12.801
N18370 X-1.378 Y12.652
N18375 X-1.117 Y12.512
N18380 X-0.787 Y12.368
N18385 X-0.372 Y12.224
N18390 X0.185 Y12.081
N18395 X0.896 Y11.957
N18400 X1.615 Y11.885
N18405 X2.335 Y11.842
N18410 X3.057 Y11.818
N18415 X3.779 Y11.803
N18420 X4.501 Y11.795
N18425 X5.223 Y11.791
N18430 X5.945 Y11.79
N18435 X6.431 Y11.815
N18440 X6.782 Y11.861
N18445 X7.015 Y11.911
N18450 X7.244 Y11.98
N18455 X7.377 Y12.032
N18460 X7.558 Y12.136
N18465 X7.701 Y12.289
N18470 X7.791 Y12.477
N18475 X7.823 Y12.684
N18480 Y13.203
N18485 X7.824 Y13.367
N18490 X7.829 Y13.695
N18495 X7.83 Y13.71
N18500 G3 X7.534 Y14.017 I-0.3 J0.007
N18505 G1 X7.222 Y14.022
N18510 X-1.762 Y14.161
N18515 X-2.064 Y14.165
N18520 G3 X-2.369 Y13.859 I-0.005 J-0.3
N18525 G1 X-2.359 Y13.695
N18530 X-2.354 Y13.367
N18535 X-2.353 Y13.112
N18540 X-2.346 Y12.963
N18545 X-2.311 Y12.817
N18550 X-2.26 Y12.676
N18555 X-2.195 Y12.541
N18560 X-2.117 Y12.412
N18565 X-2.015 Y12.271
N18570 X-1.898 Y12.132
N18575 X-1.741 Y11.975
N18580 X-1.568 Y11.827
N18585 X-1.338 Y11.66
N18590 X-1.075 Y11.501
N18595 X-0.742 Y11.333
N18600 X-0.339 Y11.17
N18605 X0.18 Y11.006
N18610 X0.853 Y10.852
N18615 X1.568 Y10.749
N18620 X2.287 Y10.684
N18625 X3.008 Y10.645
N18630 X3.729 Y10.62
N18635 X4.451 Y10.606
N18640 X5.173 Y10.598
N18645 X5.895 Y10.614
N18650 X6.406 Y10.664
N18655 X6.77 Y10.729
N18660 X7.065 Y10.807
N18665 X7.275 Y10.88
N18670 X7.407 Y10.939
N18675 X7.577 Y11.046
N18680 X7.71 Y11.197
N18685 X7.794 Y11.38
N18690 X7.823 Y11.579
N18695 Y12.684
N18700 G3 X7.536 Y12.973 I-0.3 J-0.01
N18705 G1 X7.199 Y12.988
N18710 X-1.729 Y13.388
N18715 X-2.04 Y13.402
N18720 G3 X-2.353 Y13.112 I-0.013 J-0.3
N18725 G1 Y12.219
N18730 X-2.346 Y12.069
N18735 X-2.32 Y11.921
N18740 X-2.277 Y11.777
N18745 X-2.22 Y11.638
N18750 X-2.152 Y11.505
N18755 X-2.058 Y11.356
N18760 X-1.947 Y11.206
N18765 X-1.804 Y11.043
N18770 X-1.634 Y10.877
N18775 X-1.423 Y10.703
N18780 X-1.167 Y10.523
N18785 X-0.859 Y10.342
N18790 X-0.477 Y10.158
N18795 X-0.013 Y9.978
N18800 X0.552 Y9.809
N18805 X1.258 Y9.659
N18810 X1.974 Y9.56
N18815 X2.693 Y9.496
N18820 X3.414 Y9.454
N18825 X4.135 Y9.428
N18830 X4.857 Y9.418
N18835 X5.579 Y9.433
N18840 X6.171 Y9.484
N18845 X6.636 Y9.561
N18850 X6.967 Y9.644
N18855 X7.214 Y9.728
N18860 X7.425 Y9.818
N18865 X7.45 Y9.832
N18870 X7.604 Y9.942
N18875 X7.722 Y10.089
N18880 X7.797 Y10.263
N18885 X7.823 Y10.45
N18890 Y11.579
N18895 G3 X7.543 Y11.868 I-0.3 J-0.01
N18900 G1 X7.199 Y11.891
N18905 X-1.729 Y12.487
N18910 X-2.033 Y12.507
N18915 G3 X-2.353 Y12.219 I-0.02 J-0.299
N18920 G1 Y11.235
N18925 X-2.346 Y11.085
N18930 X-2.324 Y10.936
N18935 X-2.285 Y10.791
N18940 X-2.232 Y10.651
N18945 X-2.165 Y10.51
N18950 X-2.076 Y10.357
N18955 X-1.967 Y10.2
N18960 X-1.823 Y10.025
N18965 X-1.658 Y9.854
N18970 X-1.441 Y9.662
N18975 X-1.198 Y9.48
N18980 X-0.88 Y9.28
N18985 X-0.52 Y9.092
N18990 X-0.06 Y8.896
N18995 X0.513 Y8.706
N19000 X1.214 Y8.533
N19005 X1.926 Y8.416
N19010 X2.644 Y8.336
N19015 X3.364 Y8.283
N19020 X4.085 Y8.251
N19025 X4.807 Y8.242
N19030 X5.529 Y8.264
N19035 X6.157 Y8.327
N19040 X6.651 Y8.416
N19045 X6.974 Y8.502
N19050 X7.24 Y8.596
N19055 X7.442 Y8.687
N19060 X7.459 Y8.696
N19065 X7.609 Y8.807
N19070 X7.725 Y8.953
N19075 X7.798 Y9.125
N19080 X7.823 Y9.31
N19085 Y10.45
N19090 G3 X7.547 Y10.739 I-0.3 J-0.01
N19095 G1 X7.199 Y10.767
N19100 X-1.73 Y11.499
N19105 X-2.029 Y11.523
N19110 G3 X-2.353 Y11.235 I-0.024 J-0.299
N19115 G1 Y10.16
N19120 X-2.346 Y10.01
N19125 X-2.321 Y9.862
N19130 X-2.281 Y9.718
N19135 X-2.228 Y9.578
N19140 X-2.153 Y9.424
N19145 X-2.063 Y9.27
N19150 X-1.943 Y9.099
N19155 X-1.8 Y8.925
N19160 X-1.617 Y8.736
N19165 X-1.399 Y8.545
N19170 X-1.124 Y8.342
N19175 X-0.804 Y8.141
N19180 X-0.385 Y7.924
N19185 X0.074 Y7.731
N19190 X0.678 Y7.532
N19195 X1.38 Y7.362
N19200 X2.092 Y7.242
N19205 X2.809 Y7.159
N19210 X3.529 Y7.104
N19215 X4.251 Y7.076
N19220 X4.973
N19225 X5.694 Y7.115
N19230 X6.307 Y7.195
N19235 X6.761 Y7.292
N19240 X7.068 Y7.384
N19245 X7.308 Y7.477
N19250 X7.428 Y7.534
N19255 X7.59 Y7.643
N19260 X7.716 Y7.793
N19265 X7.795 Y7.971
N19270 X7.823 Y8.165
N19275 Y9.31
N19280 G3 X7.549 Y9.598 I-0.3 J-0.01
N19285 G1 X7.2 Y9.629
N19290 X-1.73 Y10.422
N19295 X-2.027 Y10.449
N19300 G3 X-2.353 Y10.16 I-0.027 J-0.299
N19305 G1 Y9.102
N19310 X-2.346 Y8.953
N19315 X-2.324 Y8.804
N19320 X-2.286 Y8.659
N19325 X-2.235 Y8.518
N19330 X-2.169 Y8.372
N19335 X-2.077 Y8.206
N19340 X-1.967 Y8.043
N19345 X-1.817 Y7.852
N19350 X-1.647 Y7.67
N19355 X-1.419 Y7.461
N19360 X-1.169 Y7.267
N19365 X-0.828 Y7.044
N19370 X-0.457 Y6.841
N19375 X0.03 Y6.624
N19380 X0.629 Y6.412
N19385 X1.327 Y6.227
N19390 X2.037 Y6.094
N19395 X2.753 Y6.001
N19400 X3.472 Y5.939
N19405 X4.193 Y5.908
N19410 X4.915 Y5.91
N19415 X5.636 Y5.951
N19420 X6.24 Y6.028
N19425 X6.717 Y6.128
N19430 X7.049 Y6.225
N19435 X7.287 Y6.317
N19440 X7.426 Y6.384
N19445 X7.589 Y6.492
N19450 X7.715 Y6.642
N19455 X7.795 Y6.821
N19460 X7.823 Y7.015
N19465 Y8.165
N19470 G3 X7.552 Y8.453 I-0.3 J-0.01
N19475 G1 X7.2 Y8.487
N19480 X-1.73 Y9.362
N19485 X-2.024 Y9.391
N19490 G3 X-2.353 Y9.102 I-0.029 J-0.299
N19495 G1 Y7.954
N19500 X-2.346 Y7.805
N19505 X-2.319 Y7.657
N19510 X-2.276 Y7.513
N19515 X-2.222 Y7.373
N19520 X-2.144 Y7.212
N19525 X-2.047 Y7.048
N19530 X-1.92 Y6.867
N19535 X-1.766 Y6.682
N19540 X-1.571 Y6.481
N19545 X-1.336 Y6.276
N19550 X-1.04 Y6.057
N19555 X-0.694 Y5.842
N19560 X-0.238 Y5.606
N19565 X0.261 Y5.398
N19570 X0.913 Y5.185
N19575 X1.615 Y5.017
N19580 X2.326 Y4.895
N19585 X3.043 Y4.811
N19590 X3.764 Y4.76
N19595 X4.485 Y4.743
N19600 X5.207 Y4.761
N19605 X5.926 Y4.825
N19610 X6.484 Y4.918
N19615 X6.875 Y5.017
N19620 X7.177 Y5.119
N19625 X7.391 Y5.212
N19630 X7.451 Y5.244
N19635 X7.604 Y5.354
N19640 X7.723 Y5.502
N19645 X7.797 Y5.675
N19650 X7.823 Y5.862
N19655 Y7.015
N19660 G3 X7.552 Y7.303 I-0.3 J-0.01
N19665 G1 X7.2 Y7.337
N19670 X-1.73 Y8.214
N19675 X-2.024 Y8.242
N19680 G3 X-2.353 Y7.954 I-0.029 J-0.299
N19685 G1 Y6.88
N19690 X-2.346 Y6.73
N19695 X-2.323 Y6.582
N19700 X-2.286 Y6.437
N19705 X-2.232 Y6.288
N19710 X-2.164 Y6.14
N19715 X-2.07 Y5.969
N19720 X-1.954 Y5.796
N19725 X-1.804 Y5.606
N19730 X-1.617 Y5.404
N19735 X-1.388 Y5.194
N19740 X-1.113 Y4.979
N19745 X-0.764 Y4.75
N19750 X-0.363 Y4.531
N19755 X-0.291 Y4.498
N19760 X-0.199 Y4.464
N19765 X-0.103 Y4.444
N19770 X-0.005 Y4.437
N19775 G3 X0.202 Y4.944 I-0.01 J0.3
N19780 G1 X0.135 Y5.013
N19785 X-1.78 Y7.017
N19790 X-1.837 Y7.077
N19795 G3 X-2.353 Y6.88 I-0.217 J-0.207
N19800 G1 Y5.732
N19805 X-2.346 Y5.582
N19810 X-2.321 Y5.434
N19815 X-2.281 Y5.29
N19820 X-2.227 Y5.146
N19825 X-2.154 Y4.989
N19830 X-2.055 Y4.814
N19835 X-2.007 Y4.744
N19840 X-1.851 Y4.579
N19845 X-1.651 Y4.474
N19850 X-1.428 Y4.437
N19855 G3 X-1.184 Y4.896 I-0.01 J0.3
N19860 G1 X-1.267 Y5.029
N19865 X-1.788 Y5.863
N19870 X-1.799 Y5.881
N19875 G3 X-2.353 Y5.732 I-0.254 J-0.159
N19880 G1 Y4.756
N19885 X-2.351 Y4.715
N19890 X-2.343 Y4.674
N19895 X-2.336 Y4.649
N19900 X-2.325 Y4.624
N19905 X-2.312 Y4.599
N19910 X-2.296 Y4.573
N19915 X-2.269 Y4.542
N19920 X-2.233 Y4.51
N19925 X-2.183 Y4.476
N19930 X-2.157 Y4.463
N19935 X-2.132 Y4.453
N19940 X-2.091 Y4.442
N19945 X-2.05 Y4.437
N19950 X7.051
N19955 X7.214 Y4.445
N19960 X7.407 Y4.5
N19965 X7.577 Y4.607
N19970 X7.71 Y4.758
N19975 X7.794 Y4.941
N19980 X7.823 Y5.139
N19985 G3 X7.329 Y5.358 I-0.3 J-0.01
N19990 G1 X7.242 Y5.284
N19995 X6.917 Y5.007
N20000 X6.867 Y4.965
N20005 G3 X7.051 Y4.437 I0.194 J-0.229
N20010 G1 X7.379
N20015 X7.543 Y4.44
N20020 X7.583 Y4.448
N20025 X7.623 Y4.462
N20030 X7.663 Y4.483
N20035 X7.707 Y4.513
N20040 X7.728 Y4.532
N20045 X7.749 Y4.554
N20050 X7.779 Y4.594
N20055 X7.799 Y4.634
N20060 X7.813 Y4.674
N20065 X7.821 Y4.715
N20070 X7.823 Y4.756
N20075 Y5.862
N20080 G0 Z5.
N20085 G1 X12.958 Y16.167 F5000.
N20090 G0 Z-4.974
N20095 G1 Z-5.274 F1000.
N20100 X12.963 Y16.162 Z-5.341
N20105 X12.979 Y16.147 Z-5.404
N20110 X13.005 Y16.122 Z-5.461
N20115 X13.04 Y16.09 Z-5.509
N20120 X13.082 Y16.051 Z-5.544
N20125 X13.128 Y16.008 Z-5.566
N20130 X13.176 Y15.962 Z-5.574
N20135 G3 X13.864 Y15.583 I1.083 J1.154
N20140 G1 X13.938 Y15.567
N20145 X14.102 Y15.519
N20150 X14.266 Y15.45
N20155 X14.43 Y15.366
N20160 X14.487 Y15.335
N20165 X14.594 Y15.26
N20170 X14.711 Y15.171
N20175 X14.758 Y15.131
N20180 X14.779 Y15.11
N20185 X14.89 Y15.01
N20190 X15.018 Y14.919
N20195 X15.181 Y14.822
N20200 X15.388 Y14.72
N20205 X15.659 Y14.613
N20210 X16.024 Y14.501
N20215 X16.548 Y14.386
N20220 X17.263 Y14.289
N20225 X17.983 Y14.239
N20230 X18.705 Y14.214
N20235 X19.427 Y14.201
N20240 X20.149 Y14.194
N20245 X20.871 Y14.19
N20250 X21.313 Y14.189
N20255 X21.437 Y14.2
N20260 X21.557 Y14.233
N20265 X21.669 Y14.286
N20270 X21.779 Y14.351
N20275 X22.137 Y14.545
N20280 X22.301 Y14.632
N20285 X22.721 Y14.843
N20290 X22.793 Y14.877
N20295 X23.285 Y15.09
N20300 X23.777 Y15.254
N20305 X24.27 Y15.418
N20310 G3 X24.23 Y15.996 I-0.098 J0.284
N20315 G1 X24.164 Y16.009 Z-5.566
N20320 X24.102 Y16.021 Z-5.544
N20325 X24.046 Y16.032 Z-5.509
N20330 X23.999 Y16.041 Z-5.461
N20335 X23.964 Y16.047 Z-5.404
N20340 X23.943 Y16.052 Z-5.341
N20345 X23.935 Y16.053 Z-5.274
N20350 G0 Z5.
N20355 G1 X14.326 Y16.089 F5000.
N20360 G0 Z-4.974
N20365 G1 Z-5.274 F1000.
N20370 X14.328 Y16.081 Z-5.341
N20375 X14.333 Y16.06 Z-5.404
N20380 X14.342 Y16.025 Z-5.461
N20385 X14.354 Y15.979 Z-5.509
N20390 X14.368 Y15.924 Z-5.544
N20395 X14.384 Y15.863 Z-5.566
N20400 X14.401 Y15.798 Z-5.574
N20405 G3 X14.779 Y15.11 I1.533 J0.394
N20410 G1 X14.883 Y15.007
N20415 X14.922 Y14.965
N20420 X15.023 Y14.843
N20425 X15.086 Y14.758
N20430 X15.136 Y14.679
N20435 X15.226 Y14.515
N20440 X15.25 Y14.465
N20445 X15.315 Y14.329
N20450 X15.406 Y14.21
N20455 X15.508 Y14.1
N20460 X15.623 Y13.996
N20465 X15.774 Y13.881
N20470 X15.968 Y13.755
N20475 X16.184 Y13.639
N20480 X16.471 Y13.514
N20485 X16.835 Y13.388
N20490 X17.334 Y13.26
N20495 X18.045 Y13.136
N20500 X18.764 Y13.069
N20505 X19.485 Y13.032
N20510 X19.731 Y13.025
N20515 X19.915 Y13.044
N20520 X20.087 Y13.111
N20525 X20.236 Y13.22
N20530 X20.388 Y13.367
N20535 X20.563 Y13.531
N20540 X20.661 Y13.617
N20545 X21.153 Y13.953
N20550 X21.645 Y14.272
N20555 X21.669 Y14.286
N20560 G3 X21.51 Y14.839 I-0.161 J0.253
N20565 G1 X21.496
N20570 X15.736 Y14.87
N20575 X15.532 Y14.871
N20580 G3 X15.25 Y14.465 I-0.002 J-0.3
N20585 G1 X15.298 Y14.351
N20590 X15.35 Y14.187
N20595 X15.393 Y14.023
N20600 X15.414 Y13.873
N20605 X15.443 Y13.726
N20610 X15.492 Y13.585
N20615 X15.559 Y13.45
N20620 X15.64 Y13.324
N20625 X15.733 Y13.206
N20630 X15.845 Y13.085
N20635 X15.993 Y12.948
N20640 X16.16 Y12.818
N20645 X16.37 Y12.679
N20650 X16.65 Y12.524
N20655 X16.951 Y12.389
N20660 X17.364 Y12.241
N20665 X17.881 Y12.102
N20670 X18.508 Y11.987
N20675 X18.684 Y11.969
N20680 X18.856 Y11.972
N20685 X19.022 Y12.018
N20690 X19.171 Y12.102
N20695 X19.296 Y12.221
N20700 X19.563 Y12.547
N20705 X19.678 Y12.671
N20710 X19.842 Y12.84
N20715 X20.236 Y13.22
N20720 G3 X20.054 Y13.727 I-0.216 J0.209
N20725 G1 X19.938 Y13.74
N20730 X15.993 Y14.177
N20735 X15.745 Y14.204
N20740 G3 X15.414 Y13.873 I-0.033 J-0.298
N20745 G1 X15.416 Y13.859
N20750 X15.426 Y13.695
N20755 X15.431 Y13.367
N20760 X15.432 Y13.153
N20765 X15.439 Y13.003
N20770 X15.468 Y12.856
N20775 X15.515 Y12.714
N20780 X15.577 Y12.577
N20785 X15.652 Y12.447
N20790 X15.747 Y12.308
N20795 X15.858 Y12.171
N20800 X16.007 Y12.015
N20805 X16.173 Y11.868
N20810 X16.391 Y11.702
N20815 X16.638 Y11.545
N20820 X16.955 Y11.377
N20825 X17.307 Y11.226
N20830 X17.607 Y11.124
N20835 X17.851 Y11.063
N20840 X17.944 Y11.048
N20845 X18.158 Y11.045
N20850 X18.363 Y11.108
N20855 X18.54 Y11.229
N20860 X18.671 Y11.399
N20865 X18.694 Y11.439
N20870 X18.777 Y11.563
N20875 X19.027 Y11.891
N20880 X19.186 Y12.086
N20885 X19.296 Y12.221
N20890 X19.33 Y12.276
N20895 X19.35 Y12.338
N20900 X19.358 Y12.403
N20905 G3 X19.123 Y12.696 I-0.3 J0.
N20910 G1 X18.943 Y12.736
N20915 X16.049 Y13.379
N20920 X15.797 Y13.435
N20925 X15.732 Y13.443
N20930 G3 X15.432 Y13.153 I0. J-0.3
N20935 G1 Y12.219
N20940 X15.439 Y12.069
N20945 X15.466 Y11.921
N20950 X15.509 Y11.777
N20955 X15.566 Y11.639
N20960 X15.637 Y11.503
N20965 X15.73 Y11.354
N20970 X15.842 Y11.204
N20975 X15.986 Y11.04
N20980 X16.152 Y10.879
N20985 X16.344 Y10.721
N20990 X16.56 Y10.571
